;FLAVOR:Marlin
;TIME:1071
;Filament used: 0.887448m
;Layer height: 0.2
;MINX:94.335
;MINY:94.335
;MINZ:0.2
;MAXX:125.665
;MAXY:125.665
;MAXZ:4
;Generated with Cura_SteamEngine 4.12.1
M140 S50
M105
M190 S50
M104 S200
M105
M109 S200
M82 ;absolute extrusion mode
M201 X500.00 Y500.00 Z100.00 E5000.00 ;Setup machine max acceleration
M203 X500.00 Y500.00 Z10.00 E50.00 ;Setup machine max feedrate
M204 P500.00 R1000.00 T500.00 ;Setup Print/Retract/Travel acceleration
M205 X8.00 Y8.00 Z0.40 E5.00 ;Setup Jerk
M220 S100 ;Reset Feedrate
M221 S100 ;Reset Flowrate

G28 ;Home

G92 E0 ;Reset Extruder
G1 Z2.0 F3000 ;Move Z Axis up
G1 X10.1 Y20 Z0.28 F5000.0 ;Move to start position
G1 X10.1 Y200.0 Z0.28 F1500.0 E15 ;Draw the first line
G1 X10.4 Y200.0 Z0.28 F5000.0 ;Move to side a little
G1 X10.4 Y20 Z0.28 F1500.0 E30 ;Draw the second line
G92 E0 ;Reset Extruder
G1 Z2.0 F3000 ;Move Z Axis up

G92 E0
G92 E0
G1 F2700 E-5
;LAYER_COUNT:20
;LAYER:0
M107
;MESH:a.stl
G0 F6000 X124.4 Y124.4 Z0.2
;TYPE:WALL-INNER
G1 F2700 E0
G1 F1200 X95.6 Y124.4 E0.95789
G1 X95.6 Y95.6 E1.91578
G1 X124.4 Y95.6 E2.87368
G1 X124.4 Y124.4 E3.83157
G0 F6000 X124.8 Y124.8
;TYPE:WALL-OUTER
G1 F1200 X95.2 Y124.8 E4.81607
G1 X95.2 Y95.2 E5.80057
G1 X124.8 Y95.2 E6.78507
G1 X124.8 Y124.8 E7.76957
G0 F6000 X124.53 Y124.53
G0 X124.29 Y124.01
G0 X124.01 Y124.01
;TYPE:SKIN
G1 F1200 X95.99 Y124.01 E8.70152
G1 X95.99 Y95.99 E9.63347
G1 X124.01 Y95.99 E10.56541
G1 X124.01 Y124.01 E11.49736
G0 F6000 X124.29 Y124.01
G0 X124.29 Y96.696
G0 X123.849 Y96.696
G1 F1200 X123.303 Y96.15 E11.52305
G0 F6000 X122.737 Y96.15
G1 F1200 X123.849 Y97.262 E11.57535
G0 F6000 X123.849 Y97.828
G1 F1200 X122.171 Y96.15 E11.65428
G0 F6000 X121.606 Y96.15
G1 F1200 X123.849 Y98.393 E11.75978
G0 F6000 X123.849 Y98.959
G1 F1200 X121.04 Y96.15 E11.89191
G0 F6000 X120.474 Y96.15
G1 F1200 X123.849 Y99.525 E12.05066
G0 F6000 X123.849 Y100.09
G1 F1200 X119.909 Y96.15 E12.23598
G0 F6000 X119.343 Y96.15
G1 F1200 X123.849 Y100.656 E12.44793
G0 F6000 X123.849 Y101.222
G1 F1200 X118.777 Y96.15 E12.6865
G0 F6000 X118.211 Y96.15
G1 F1200 X123.849 Y101.788 E12.9517
G0 F6000 X123.849 Y102.353
G1 F1200 X117.646 Y96.15 E13.24347
G0 F6000 X117.08 Y96.15
G1 F1200 X123.849 Y102.919 E13.56186
G0 F6000 X123.849 Y103.485
G1 F1200 X116.514 Y96.15 E13.90688
G0 F6000 X115.949 Y96.15
G1 F1200 X123.849 Y104.05 E14.27847
G0 F6000 X123.849 Y104.616
G1 F1200 X115.383 Y96.15 E14.67668
G0 F6000 X114.817 Y96.15
G1 F1200 X123.849 Y105.182 E15.10152
G0 F6000 X123.849 Y105.747
G1 F1200 X114.252 Y96.15 E15.55293
G0 F6000 X113.686 Y96.15
G1 F1200 X123.849 Y106.313 E16.03097
G0 F6000 X123.849 Y106.879
G1 F1200 X113.12 Y96.15 E16.53563
G0 F6000 X112.555 Y96.15
G1 F1200 X123.849 Y107.444 E17.06687
G0 F6000 X123.849 Y108.01
G1 F1200 X111.989 Y96.15 E17.62472
G0 F6000 X111.423 Y96.15
G1 F1200 X123.849 Y108.576 E18.2092
G0 F6000 X123.849 Y109.141
G1 F1200 X110.858 Y96.15 E18.82026
G0 F6000 X110.292 Y96.15
G1 F1200 X123.849 Y109.707 E19.45794
G0 F6000 X123.849 Y110.273
G1 F1200 X109.726 Y96.15 E20.12224
G0 F6000 X109.161 Y96.15
G1 F1200 X123.849 Y110.838 E20.81312
G0 F6000 X123.849 Y111.404
G1 F1200 X108.595 Y96.15 E21.53062
G0 F6000 X108.029 Y96.15
G1 F1200 X123.849 Y111.97 E22.27475
G0 F6000 X123.849 Y112.536
G1 F1200 X107.463 Y96.15 E23.0455
G0 F6000 X106.898 Y96.15
G1 F1200 X123.849 Y113.101 E23.84282
G0 F6000 X123.849 Y113.667
G1 F1200 X106.332 Y96.15 E24.66676
G0 F6000 X105.766 Y96.15
G1 F1200 X123.849 Y114.233 E25.51733
G0 F6000 X123.849 Y114.798
G1 F1200 X105.201 Y96.15 E26.39448
G0 F6000 X104.635 Y96.15
G1 F1200 X123.849 Y115.364 E27.29825
G0 F6000 X123.849 Y115.93
G1 F1200 X104.069 Y96.15 E28.22864
G0 F6000 X103.504 Y96.15
G1 F1200 X123.849 Y116.495 E29.1856
G0 F6000 X123.849 Y117.061
G1 F1200 X102.938 Y96.15 E30.16919
G0 F6000 X102.372 Y96.15
G1 F1200 X123.849 Y117.627 E31.1794
G0 F6000 X123.849 Y118.192
G1 F1200 X101.807 Y96.15 E32.21619
G0 F6000 X101.241 Y96.15
G1 F1200 X123.849 Y118.758 E33.2796
G0 F6000 X123.849 Y119.324
G1 F1200 X100.675 Y96.15 E34.36964
G0 F6000 X100.11 Y96.15
G1 F1200 X123.849 Y119.889 E35.48625
G0 F6000 X123.849 Y120.455
G1 F1200 X99.544 Y96.15 E36.62948
G0 F6000 X98.978 Y96.15
G1 F1200 X123.849 Y121.021 E37.79934
G0 F6000 X123.849 Y121.587
G1 F1200 X98.413 Y96.15 E38.99579
G0 F6000 X97.847 Y96.15
G1 F1200 X123.849 Y122.152 E40.21884
G0 F6000 X123.849 Y122.718
G1 F1200 X97.281 Y96.15 E41.46852
G0 F6000 X96.715 Y96.15
G1 F1200 X123.849 Y123.284 E42.74482
G0 F6000 X123.849 Y123.849
G1 F1200 X96.149 Y96.149 E44.04775
G0 F6000 X96.149 Y96.715
G1 F1200 X123.283 Y123.849 E45.32405
G0 F6000 X122.717 Y123.849
G1 F1200 X96.149 Y97.28 E46.57375
G0 F6000 X96.149 Y97.846
G1 F1200 X122.151 Y123.849 E47.79682
G0 F6000 X121.586 Y123.849
G1 F1200 X96.149 Y98.412 E48.9933
G0 F6000 X96.149 Y98.977
G1 F1200 X121.02 Y123.849 E50.16318
G0 F6000 X120.454 Y123.849
G1 F1200 X96.149 Y99.543 E51.30644
G0 F6000 X96.149 Y100.109
G1 F1200 X119.889 Y123.849 E52.42309
G0 F6000 X119.323 Y123.849
G1 F1200 X96.149 Y100.675 E53.51313
G0 F6000 X96.149 Y101.24
G1 F1200 X118.757 Y123.849 E54.57656
G0 F6000 X118.192 Y123.849
G1 F1200 X96.149 Y101.806 E55.6134
G0 F6000 X96.149 Y102.372
G1 F1200 X117.626 Y123.849 E56.62361
G0 F6000 X117.06 Y123.849
G1 F1200 X96.149 Y102.937 E57.60722
G0 F6000 X96.149 Y103.503
G1 F1200 X116.495 Y123.849 E58.56424
G0 F6000 X115.929 Y123.849
G1 F1200 X96.149 Y104.069 E59.49463
G0 F6000 X96.149 Y104.634
G1 F1200 X115.363 Y123.849 E60.39842
G0 F6000 X114.798 Y123.849
G1 F1200 X96.149 Y105.2 E61.27561
G0 F6000 X96.149 Y105.766
G1 F1200 X114.232 Y123.849 E62.12618
G0 F6000 X113.666 Y123.849
G1 F1200 X96.149 Y106.331 E62.95015
G0 F6000 X96.149 Y106.897
G1 F1200 X113.101 Y123.849 E63.74752
G0 F6000 X112.535 Y123.849
G1 F1200 X96.149 Y107.463 E64.51827
G0 F6000 X96.149 Y108.028
G1 F1200 X111.969 Y123.849 E65.26241
G0 F6000 X111.403 Y123.849
G1 F1200 X96.149 Y108.594 E65.97994
G0 F6000 X96.149 Y109.16
G1 F1200 X110.838 Y123.849 E66.67086
G0 F6000 X110.272 Y123.849
G1 F1200 X96.149 Y109.726 E67.33517
G0 F6000 X96.149 Y110.291
G1 F1200 X109.706 Y123.849 E67.97287
G0 F6000 X109.141 Y123.849
G1 F1200 X96.149 Y110.857 E68.58397
G0 F6000 X96.149 Y111.423
G1 F1200 X108.575 Y123.849 E69.16845
G0 F6000 X108.009 Y123.849
G1 F1200 X96.149 Y111.988 E69.72634
G0 F6000 X96.149 Y112.554
G1 F1200 X107.444 Y123.849 E70.25762
G0 F6000 X106.878 Y123.849
G1 F1200 X96.149 Y113.12 E70.76228
G0 F6000 X96.149 Y113.685
G1 F1200 X106.312 Y123.849 E71.24034
G0 F6000 X105.747 Y123.849
G1 F1200 X96.149 Y114.251 E71.6918
G0 F6000 X96.149 Y114.817
G1 F1200 X105.181 Y123.849 E72.11664
G0 F6000 X104.615 Y123.849
G1 F1200 X96.149 Y115.382 E72.51487
G0 F6000 X96.149 Y115.948
G1 F1200 X104.05 Y123.849 E72.88651
G0 F6000 X103.484 Y123.849
G1 F1200 X96.149 Y116.514 E73.23153
G0 F6000 X96.149 Y117.079
G1 F1200 X102.918 Y123.849 E73.54995
G0 F6000 X102.352 Y123.849
G1 F1200 X96.149 Y117.645 E73.84174
G0 F6000 X96.149 Y118.211
G1 F1200 X101.787 Y123.849 E74.10693
G0 F6000 X101.221 Y123.849
G1 F1200 X96.149 Y118.776 E74.34553
G0 F6000 X96.149 Y119.342
G1 F1200 X100.655 Y123.849 E74.5575
G0 F6000 X100.09 Y123.849
G1 F1200 X96.149 Y119.908 E74.74287
G0 F6000 X96.149 Y120.474
G1 F1200 X99.524 Y123.849 E74.90162
G0 F6000 X98.958 Y123.849
G1 F1200 X96.149 Y121.039 E75.03377
G0 F6000 X96.149 Y121.605
G1 F1200 X98.393 Y123.849 E75.13932
G0 F6000 X97.827 Y123.849
G1 F1200 X96.149 Y122.171 E75.21825
G0 F6000 X96.149 Y122.736
G1 F1200 X97.261 Y123.849 E75.27058
G0 F6000 X96.696 Y123.849
G1 F1200 X96.149 Y123.302 E75.29631
G0 F6000 X95.8 Y123.302
;MESH:NONMESH
G0 F300 X95.8 Y123.302 Z0.4
G0 F6000 X95.71 Y123.302
G0 X95.782 Y124.218
G0 X124.4 Y124.4
;TIME_ELAPSED:125.904304
;LAYER:1
M106 S85
;TYPE:WALL-INNER
;MESH:a.stl
G1 F1800 X95.6 Y124.4 E76.2542
G1 X95.6 Y95.6 E77.21209
G1 X124.4 Y95.6 E78.16998
G1 X124.4 Y124.4 E79.12788
G0 F9000 X124.8 Y124.8
;TYPE:WALL-OUTER
G1 F1800 X95.2 Y124.8 E80.11238
G1 X95.2 Y95.2 E81.09688
G1 X124.8 Y95.2 E82.08138
G1 X124.8 Y124.8 E83.06588
G0 F9000 X124.53 Y124.53
G0 X124.29 Y124.01
G0 X124.01 Y124.01
;TYPE:SKIN
G1 F1800 X95.99 Y124.01 E83.99783
G1 X95.99 Y95.99 E84.92977
G1 X124.01 Y95.99 E85.86172
G1 X124.01 Y124.01 E86.79367
G0 F9000 X123.849 Y123.355
G1 F1800 X123.354 Y123.849 E86.81693
G0 F9000 X122.789 Y123.849
G1 F1800 X123.849 Y122.789 E86.86679
G0 F9000 X123.849 Y122.224
G1 F1800 X122.223 Y123.849 E86.94325
G0 F9000 X121.657 Y123.849
G1 F1800 X123.849 Y121.658 E87.04633
G0 F9000 X123.849 Y121.092
G1 F1800 X121.092 Y123.849 E87.17601
G0 F9000 X120.526 Y123.849
G1 F1800 X123.849 Y120.527 E87.33229
G0 F9000 X123.849 Y119.961
G1 F1800 X119.96 Y123.849 E87.5152
G0 F9000 X119.394 Y123.849
G1 F1800 X123.849 Y119.395 E87.72472
G0 F9000 X123.849 Y118.83
G1 F1800 X118.829 Y123.849 E87.96082
G0 F9000 X118.263 Y123.849
G1 F1800 X123.849 Y118.264 E88.22355
G0 F9000 X123.849 Y117.698
G1 F1800 X117.697 Y123.849 E88.5129
G0 F9000 X117.132 Y123.849
G1 F1800 X123.849 Y117.132 E88.82884
G0 F9000 X123.849 Y116.567
G1 F1800 X116.566 Y123.849 E89.17139
G0 F9000 X116 Y123.849
G1 F1800 X123.849 Y116.001 E89.54056
G0 F9000 X123.849 Y115.435
G1 F1800 X115.435 Y123.849 E89.93633
G0 F9000 X114.869 Y123.849
G1 F1800 X123.849 Y114.87 E90.3587
G0 F9000 X123.849 Y114.304
G1 F1800 X114.303 Y123.849 E90.80769
G0 F9000 X113.738 Y123.849
G1 F1800 X123.849 Y113.738 E91.28328
G0 F9000 X123.849 Y113.173
G1 F1800 X113.172 Y123.849 E91.78547
G0 F9000 X112.606 Y123.849
G1 F1800 X123.849 Y112.607 E92.31428
G0 F9000 X123.849 Y112.041
G1 F1800 X112.041 Y123.849 E92.86969
G0 F9000 X111.475 Y123.849
G1 F1800 X123.849 Y111.476 E93.4517
G0 F9000 X123.849 Y110.91
G1 F1800 X110.909 Y123.849 E94.06034
G0 F9000 X110.344 Y123.849
G1 F1800 X123.849 Y110.344 E94.69557
G0 F9000 X123.849 Y109.779
G1 F1800 X109.778 Y123.849 E95.3574
G0 F9000 X109.212 Y123.849
G1 F1800 X123.849 Y109.213 E96.04586
G0 F9000 X123.849 Y108.647
G1 F1800 X108.646 Y123.849 E96.76094
G0 F9000 X108.081 Y123.849
G1 F1800 X123.849 Y108.081 E97.50262
G0 F9000 X123.849 Y107.516
G1 F1800 X107.515 Y123.849 E98.2709
G0 F9000 X106.949 Y123.849
G1 F1800 X123.849 Y106.95 E99.0658
G0 F9000 X123.849 Y106.384
G1 F1800 X106.384 Y123.849 E99.8873
G0 F9000 X105.818 Y123.849
G1 F1800 X123.849 Y105.819 E100.7354
G0 F9000 X123.849 Y105.253
G1 F1800 X105.252 Y123.849 E101.61012
G0 F9000 X104.687 Y123.849
G1 F1800 X123.849 Y104.687 E102.51144
G0 F9000 X123.849 Y104.122
G1 F1800 X104.121 Y123.849 E103.43936
G0 F9000 X103.555 Y123.849
G1 F1800 X123.849 Y103.556 E104.39391
G0 F9000 X123.849 Y102.99
G1 F1800 X102.99 Y123.849 E105.37505
G0 F9000 X102.424 Y123.849
G1 F1800 X123.849 Y102.425 E106.38279
G0 F9000 X123.849 Y101.859
G1 F1800 X101.858 Y123.849 E107.41716
G0 F9000 X101.293 Y123.849
G1 F1800 X123.849 Y101.293 E108.47812
G0 F9000 X123.849 Y100.728
G1 F1800 X100.727 Y123.849 E109.56569
G0 F9000 X100.161 Y123.849
G1 F1800 X123.849 Y100.162 E110.67987
G0 F9000 X123.849 Y99.596
G1 F1800 X99.595 Y123.849 E111.82068
G0 F9000 X99.03 Y123.849
G1 F1800 X123.849 Y99.031 E112.98807
G0 F9000 X123.849 Y98.465
G1 F1800 X98.464 Y123.849 E114.18208
G0 F9000 X97.898 Y123.849
G1 F1800 X123.849 Y97.899 E115.40271
G0 F9000 X123.849 Y97.333
G1 F1800 X97.333 Y123.849 E116.64994
G0 F9000 X96.767 Y123.849
G1 F1800 X123.849 Y96.768 E117.92377
G0 F9000 X123.849 Y96.202
G1 F1800 X96.201 Y123.849 E119.22423
G0 F9000 X96.15 Y123.335
G1 F1800 X123.336 Y96.149 E120.50297
G0 F9000 X122.77 Y96.149
G1 F1800 X96.15 Y122.77 E121.75512
G0 F9000 X96.15 Y122.204
G1 F1800 X122.205 Y96.149 E122.98067
G0 F9000 X121.639 Y96.149
G1 F1800 X96.15 Y121.638 E124.17959
G0 F9000 X96.15 Y121.072
G1 F1800 X121.073 Y96.149 E125.35189
G0 F9000 X120.507 Y96.149
G1 F1800 X96.15 Y120.507 E126.4976
G0 F9000 X96.15 Y119.941
G1 F1800 X119.942 Y96.149 E127.6167
G0 F9000 X119.376 Y96.149
G1 F1800 X96.15 Y119.375 E128.70918
G0 F9000 X96.15 Y118.81
G1 F1800 X118.81 Y96.149 E129.77506
G0 F9000 X118.245 Y96.149
G1 F1800 X96.15 Y118.244 E130.81434
G0 F9000 X96.15 Y117.678
G1 F1800 X117.679 Y96.149 E131.827
G0 F9000 X117.113 Y96.149
G1 F1800 X96.15 Y117.113 E132.81306
G0 F9000 X96.15 Y116.547
G1 F1800 X116.548 Y96.149 E133.77252
G0 F9000 X115.982 Y96.149
G1 F1800 X96.15 Y115.981 E134.70535
G0 F9000 X96.15 Y115.416
G1 F1800 X115.416 Y96.149 E135.61159
G0 F9000 X114.851 Y96.149
G1 F1800 X96.15 Y114.85 E136.49123
G0 F9000 X96.15 Y114.284
G1 F1800 X114.285 Y96.149 E137.34424
G0 F9000 X113.719 Y96.149
G1 F1800 X96.15 Y113.719 E138.17066
G0 F9000 X96.15 Y113.153
G1 F1800 X113.154 Y96.149 E138.97047
G0 F9000 X112.588 Y96.149
G1 F1800 X96.15 Y112.587 E139.74367
G0 F9000 X96.15 Y112.021
G1 F1800 X112.022 Y96.149 E140.49024
G0 F9000 X111.456 Y96.149
G1 F1800 X96.15 Y111.456 E141.21021
G0 F9000 X96.15 Y110.89
G1 F1800 X110.891 Y96.149 E141.90358
G0 F9000 X110.325 Y96.149
G1 F1800 X96.15 Y110.324 E142.57033
G0 F9000 X96.15 Y109.759
G1 F1800 X109.759 Y96.149 E143.21048
G0 F9000 X109.194 Y96.149
G1 F1800 X96.15 Y109.193 E143.82403
G0 F9000 X96.15 Y108.627
G1 F1800 X108.628 Y96.149 E144.41095
G0 F9000 X108.062 Y96.149
G1 F1800 X96.15 Y108.062 E144.97128
G0 F9000 X96.15 Y107.496
G1 F1800 X107.497 Y96.149 E145.50501
G0 F9000 X106.931 Y96.149
G1 F1800 X96.15 Y106.93 E146.01211
G0 F9000 X96.15 Y106.365
G1 F1800 X106.365 Y96.149 E146.49262
G0 F9000 X105.8 Y96.149
G1 F1800 X96.15 Y105.799 E146.94653
G0 F9000 X96.15 Y105.233
G1 F1800 X105.234 Y96.149 E147.37381
G0 F9000 X104.668 Y96.149
G1 F1800 X96.15 Y104.668 E147.77449
G0 F9000 X96.15 Y104.102
G1 F1800 X104.103 Y96.149 E148.14858
G0 F9000 X103.537 Y96.149
G1 F1800 X96.15 Y103.536 E148.49604
G0 F9000 X96.15 Y102.971
G1 F1800 X102.971 Y96.149 E148.8169
G0 F9000 X102.406 Y96.149
G1 F1800 X96.15 Y102.405 E149.11117
G0 F9000 X96.15 Y101.839
G1 F1800 X101.84 Y96.149 E149.37881
G0 F9000 X101.274 Y96.149
G1 F1800 X96.15 Y101.273 E149.61982
G0 F9000 X96.15 Y100.708
G1 F1800 X100.708 Y96.149 E149.83424
G0 F9000 X100.143 Y96.149
G1 F1800 X96.15 Y100.142 E150.02206
G0 F9000 X96.15 Y99.576
G1 F1800 X99.577 Y96.149 E150.18326
G0 F9000 X99.011 Y96.149
G1 F1800 X96.15 Y99.011 E150.31785
G0 F9000 X96.15 Y98.445
G1 F1800 X98.446 Y96.149 E150.42585
G0 F9000 X97.88 Y96.149
G1 F1800 X96.15 Y97.879 E150.50722
G0 F9000 X96.15 Y97.314
G1 F1800 X97.314 Y96.149 E150.562
G0 F9000 X96.749 Y96.149
G1 F1800 X96.15 Y96.748 E150.59017
G0 F9000 X95.8 Y96.748
G1 F2700 E145.59017
;MESH:NONMESH
G0 F300 X95.8 Y96.748 Z0.6
G0 F9000 X95.71 Y96.748
G0 X95.782 Y124.218
G0 X124.4 Y124.4
;TIME_ELAPSED:211.722017
;LAYER:2
M106 S170
;TYPE:WALL-INNER
;MESH:a.stl
G1 F2700 E150.59017
G1 F2400 X95.6 Y124.4 E151.54806
G1 X95.6 Y95.6 E152.50596
G1 X124.4 Y95.6 E153.46385
G1 X124.4 Y124.4 E154.42174
G0 F12000 X124.8 Y124.8
;TYPE:WALL-OUTER
G1 F2400 X95.2 Y124.8 E155.40624
G1 X95.2 Y95.2 E156.39074
G1 X124.8 Y95.2 E157.37524
G1 X124.8 Y124.8 E158.35974
G0 F12000 X124.53 Y124.53
G0 X124.29 Y124.01
G0 X124.01 Y124.01
;TYPE:SKIN
G1 F2400 X95.99 Y124.01 E159.29169
G1 X95.99 Y95.99 E160.22364
G1 X124.01 Y95.99 E161.15559
G1 X124.01 Y124.01 E162.08754
G0 F12000 X124.29 Y124.01
G0 X124.29 Y96.696
G0 X123.849 Y96.696
G1 F2400 X123.303 Y96.15 E162.11322
G0 F12000 X122.737 Y96.15
G1 F2400 X123.849 Y97.262 E162.16552
G0 F12000 X123.849 Y97.828
G1 F2400 X122.171 Y96.15 E162.24445
G0 F12000 X121.606 Y96.15
G1 F2400 X123.849 Y98.393 E162.34995
G0 F12000 X123.849 Y98.959
G1 F2400 X121.04 Y96.15 E162.48208
G0 F12000 X120.474 Y96.15
G1 F2400 X123.849 Y99.525 E162.64083
G0 F12000 X123.849 Y100.09
G1 F2400 X119.909 Y96.15 E162.82616
G0 F12000 X119.343 Y96.15
G1 F2400 X123.849 Y100.656 E163.0381
G0 F12000 X123.849 Y101.222
G1 F2400 X118.777 Y96.15 E163.27668
G0 F12000 X118.211 Y96.15
G1 F2400 X123.849 Y101.788 E163.54187
G0 F12000 X123.849 Y102.353
G1 F2400 X117.646 Y96.15 E163.83364
G0 F12000 X117.08 Y96.15
G1 F2400 X123.849 Y102.919 E164.15203
G0 F12000 X123.849 Y103.485
G1 F2400 X116.514 Y96.15 E164.49705
G0 F12000 X115.949 Y96.15
G1 F2400 X123.849 Y104.05 E164.86864
G0 F12000 X123.849 Y104.616
G1 F2400 X115.383 Y96.15 E165.26686
G0 F12000 X114.817 Y96.15
G1 F2400 X123.849 Y105.182 E165.69169
