;FLAVOR:Marlin
;TIME:1644
;Filament used: 1.52286m
;Layer height: 0.2
;MINX:90.2
;MINY:89.335
;MINZ:0.2
;MAXX:130.665
;MAXY:130.665
;MAXZ:4
;Generated with Cura_SteamEngine 4.12.1
M140 S50
M105
M190 S50
M104 S200
M105
M109 S200
M82 ;absolute extrusion mode
M201 X500.00 Y500.00 Z100.00 E5000.00 ;Setup machine max acceleration
M203 X500.00 Y500.00 Z10.00 E50.00 ;Setup machine max feedrate
M204 P500.00 R1000.00 T500.00 ;Setup Print/Retract/Travel acceleration
M205 X8.00 Y8.00 Z0.40 E5.00 ;Setup Jerk
M220 S100 ;Reset Feedrate
M221 S100 ;Reset Flowrate

G28 ;Home

G92 E0 ;Reset Extruder
G1 Z2.0 F3000 ;Move Z Axis up
G1 X10.1 Y20 Z0.28 F5000.0 ;Move to start position
G1 X10.1 Y200.0 Z0.28 F1500.0 E15 ;Draw the first line
G1 X10.4 Y200.0 Z0.28 F5000.0 ;Move to side a little
G1 X10.4 Y20 Z0.28 F1500.0 E30 ;Draw the second line
G92 E0 ;Reset Extruder
G1 Z2.0 F3000 ;Move Z Axis up

G92 E0
G92 E0
G1 F2700 E-5
;LAYER_COUNT:20
;LAYER:0
M107
;MESH:b.stl
G0 F6000 X129.4 Y129.4 Z0.2
;TYPE:WALL-INNER
G1 F2700 E0
G1 F1200 X90.6 Y129.4 E1.29049
G1 X90.6 Y90.6 E2.58099
G1 X129.4 Y90.6 E3.87148
G1 X129.4 Y129.4 E5.16197
G0 F6000 X129.8 Y129.8
;TYPE:WALL-OUTER
G1 F1200 X90.2 Y129.8 E6.47907
G1 X90.2 Y90.2 E7.79618
G1 X129.8 Y90.2 E9.11328
G1 X129.8 Y129.8 E10.43038
G0 F6000 X129.53 Y129.53
G0 X129.29 Y129.01
G0 X129.01 Y129.01
;TYPE:SKIN
G1 F1200 X90.99 Y129.01 E11.69493
G1 X90.99 Y90.99 E12.95948
G1 X129.01 Y90.99 E14.22403
G1 X129.01 Y129.01 E15.48858
G1 F2700 E10.48858
G0 F6000 X129.29 Y129.01
G0 X129.29 Y91.514
G1 F2700 E15.48858
G0 F6000 X128.849 Y91.514
G1 F1200 X128.485 Y91.15 E15.5057
G0 F6000 X127.919 Y91.15
G1 F1200 X128.849 Y92.08 E15.54945
G0 F6000 X128.849 Y92.645
G1 F1200 X127.354 Y91.15 E15.61977
G0 F6000 X126.788 Y91.15
G1 F1200 X128.849 Y93.211 E15.71671
G0 F6000 X128.849 Y93.777
G1 F1200 X126.222 Y91.15 E15.84027
G0 F6000 X125.657 Y91.15
G1 F1200 X128.849 Y94.342 E15.99042
G0 F6000 X128.849 Y94.908
G1 F1200 X125.091 Y91.15 E16.16718
G0 F6000 X124.525 Y91.15
G1 F1200 X128.849 Y95.474 E16.37057
G0 F6000 X128.849 Y96.039
G1 F1200 X123.96 Y91.15 E16.60053
G0 F6000 X123.394 Y91.15
G1 F1200 X128.849 Y96.605 E16.85712
G0 F6000 X128.849 Y97.171
G1 F1200 X122.828 Y91.15 E17.14033
G0 F6000 X122.263 Y91.15
G1 F1200 X128.849 Y97.737 E17.45014
G0 F6000 X128.849 Y98.302
G1 F1200 X121.697 Y91.15 E17.78655
G0 F6000 X121.131 Y91.15
G1 F1200 X128.849 Y98.868 E18.14958
G0 F6000 X128.849 Y99.434
G1 F1200 X120.565 Y91.15 E18.53923
G0 F6000 X120 Y91.15
G1 F1200 X128.849 Y99.999 E18.95546
G0 F6000 X128.849 Y100.565
G1 F1200 X119.434 Y91.15 E19.39831
G0 F6000 X118.868 Y91.15
G1 F1200 X128.849 Y101.131 E19.86779
G0 F6000 X128.849 Y101.696
G1 F1200 X118.303 Y91.15 E20.36384
G0 F6000 X117.737 Y91.15
G1 F1200 X128.849 Y102.262 E20.88651
G0 F6000 X128.849 Y102.828
G1 F1200 X117.171 Y91.15 E21.43581
G0 F6000 X116.606 Y91.15
G1 F1200 X128.849 Y103.393 E22.01169
G0 F6000 X128.849 Y103.959
G1 F1200 X116.04 Y91.15 E22.61418
G0 F6000 X115.474 Y91.15
G1 F1200 X128.849 Y104.525 E23.2433
G0 F6000 X128.849 Y105.09
G1 F1200 X114.909 Y91.15 E23.899
G0 F6000 X114.343 Y91.15
G1 F1200 X128.849 Y105.656 E24.58131
G0 F6000 X128.849 Y106.222
G1 F1200 X113.777 Y91.15 E25.29025
G0 F6000 X113.212 Y91.15
G1 F1200 X128.849 Y106.787 E26.02577
G0 F6000 X128.849 Y107.353
G1 F1200 X112.646 Y91.15 E26.78791
G0 F6000 X112.08 Y91.15
G1 F1200 X128.849 Y107.919 E27.57667
G0 F6000 X128.849 Y108.485
G1 F1200 X111.514 Y91.15 E28.39206
G0 F6000 X110.949 Y91.15
G1 F1200 X128.849 Y109.05 E29.23402
G0 F6000 X128.849 Y109.616
G1 F1200 X110.383 Y91.15 E30.1026
G0 F6000 X109.817 Y91.15
G1 F1200 X128.849 Y110.182 E30.99781
G0 F6000 X128.849 Y110.747
G1 F1200 X109.252 Y91.15 E31.91959
G0 F6000 X108.686 Y91.15
G1 F1200 X128.849 Y111.313 E32.868
G0 F6000 X128.849 Y111.879
G1 F1200 X108.12 Y91.15 E33.84303
G0 F6000 X107.555 Y91.15
G1 F1200 X128.849 Y112.444 E34.84463
G0 F6000 X128.849 Y113.01
G1 F1200 X106.989 Y91.15 E35.87286
G0 F6000 X106.423 Y91.15
G1 F1200 X128.849 Y113.576 E36.92771
G0 F6000 X128.849 Y114.141
G1 F1200 X105.858 Y91.15 E38.00913
G0 F6000 X105.292 Y91.15
G1 F1200 X128.849 Y114.707 E39.11718
G0 F6000 X128.849 Y115.273
G1 F1200 X104.726 Y91.15 E40.25186
G0 F6000 X104.161 Y91.15
G1 F1200 X128.849 Y115.838 E41.4131
G0 F6000 X128.849 Y116.404
G1 F1200 X103.595 Y91.15 E42.60097
G0 F6000 X103.029 Y91.15
G1 F1200 X128.849 Y116.97 E43.81547
G0 F6000 X128.849 Y117.535
G1 F1200 X102.464 Y91.15 E45.05654
G0 F6000 X101.898 Y91.15
G1 F1200 X128.849 Y118.101 E46.32423
G0 F6000 X128.849 Y118.667
G1 F1200 X101.332 Y91.15 E47.61855
G0 F6000 X100.766 Y91.15
G1 F1200 X128.849 Y119.233 E48.93948
G0 F6000 X128.849 Y119.798
G1 F1200 X100.201 Y91.15 E50.287
G0 F6000 X99.635 Y91.15
G1 F1200 X128.849 Y120.364 E51.66113
G0 F6000 X128.849 Y120.93
G1 F1200 X99.069 Y91.15 E53.06189
G0 F6000 X98.504 Y91.15
G1 F1200 X128.849 Y121.495 E54.48923
G0 F6000 X128.849 Y122.061
G1 F1200 X97.938 Y91.15 E55.94319
G0 F6000 X97.372 Y91.15
G1 F1200 X128.849 Y122.627 E57.42377
G0 F6000 X128.849 Y123.192
G1 F1200 X96.807 Y91.15 E58.93093
G0 F6000 X96.241 Y91.15
G1 F1200 X128.849 Y123.758 E60.46471
G0 F6000 X128.849 Y124.324
G1 F1200 X95.675 Y91.15 E62.02511
G0 F6000 X95.11 Y91.15
G1 F1200 X128.849 Y124.889 E63.61209
G0 F6000 X128.849 Y125.455
G1 F1200 X94.544 Y91.15 E65.22569
G0 F6000 X93.978 Y91.15
G1 F1200 X128.849 Y126.021 E66.86592
G0 F6000 X128.849 Y126.586
G1 F1200 X93.413 Y91.15 E68.53272
G0 F6000 X92.847 Y91.15
G1 F1200 X128.849 Y127.152 E70.22614
G0 F6000 X128.849 Y127.718
G1 F1200 X92.281 Y91.15 E71.94619
G0 F6000 X91.715 Y91.15
G1 F1200 X128.849 Y128.284 E73.69286
G0 F6000 X128.849 Y128.849
G1 F1200 X91.149 Y91.149 E75.46615
G0 F6000 X91.149 Y91.715
G1 F1200 X128.283 Y128.848 E77.2128
G0 F6000 X127.717 Y128.848
G1 F1200 X91.149 Y92.28 E78.93284
G0 F6000 X91.149 Y92.846
G1 F1200 X127.151 Y128.848 E80.62627
G0 F6000 X126.586 Y128.848
G1 F1200 X91.149 Y93.412 E82.29309
G0 F6000 X91.149 Y93.978
G1 F1200 X126.02 Y128.848 E83.93329
G0 F6000 X125.454 Y128.848
G1 F1200 X91.149 Y94.543 E85.54689
G0 F6000 X91.149 Y95.109
G1 F1200 X124.889 Y128.848 E87.1339
G0 F6000 X124.323 Y128.848
G1 F1200 X91.149 Y95.675 E88.69428
G0 F6000 X91.149 Y96.24
G1 F1200 X123.757 Y128.848 E90.22806
G0 F6000 X123.192 Y128.848
G1 F1200 X91.149 Y96.806 E91.73524
G0 F6000 X91.149 Y97.372
G1 F1200 X122.626 Y128.848 E93.2158
G0 F6000 X122.06 Y128.848
G1 F1200 X91.149 Y97.937 E94.66975
G0 F6000 X91.149 Y98.503
G1 F1200 X121.495 Y128.848 E96.09711
G0 F6000 X120.929 Y128.848
G1 F1200 X91.149 Y99.069 E97.49785
G0 F6000 X91.149 Y99.634
G1 F1200 X120.363 Y128.848 E98.87199
G0 F6000 X119.798 Y128.848
G1 F1200 X91.149 Y100.2 E100.21953
G0 F6000 X91.149 Y100.766
G1 F1200 X119.232 Y128.848 E101.54044
G0 F6000 X118.666 Y128.848
G1 F1200 X91.149 Y101.331 E102.83476
G0 F6000 X91.149 Y101.897
G1 F1200 X118.1 Y128.848 E104.10245
G0 F6000 X117.535 Y128.848
G1 F1200 X91.149 Y102.463 E105.34354
G0 F6000 X91.149 Y103.028
G1 F1200 X116.969 Y128.848 E106.55803
G0 F6000 X116.403 Y128.848
G1 F1200 X91.149 Y103.594 E107.7459
G0 F6000 X91.149 Y104.16
G1 F1200 X115.838 Y128.848 E108.90718
G0 F6000 X115.272 Y128.848
G1 F1200 X91.149 Y104.726 E110.04182
G0 F6000 X91.149 Y105.291
G1 F1200 X114.706 Y128.848 E111.14987
G0 F6000 X114.141 Y128.848
G1 F1200 X91.149 Y105.857 E112.23132
G0 F6000 X91.149 Y106.423
G1 F1200 X113.575 Y128.848 E113.28615
G0 F6000 X113.009 Y128.848
G1 F1200 X91.149 Y106.988 E114.31438
G0 F6000 X91.149 Y107.554
G1 F1200 X112.444 Y128.848 E115.31601
G0 F6000 X111.878 Y128.848
G1 F1200 X91.149 Y108.12 E116.29101
G0 F6000 X91.149 Y108.685
G1 F1200 X111.312 Y128.848 E117.23942
G0 F6000 X110.747 Y128.848
G1 F1200 X91.149 Y109.251 E118.16122
G0 F6000 X91.149 Y109.817
G1 F1200 X110.181 Y128.848 E119.05641
G0 F6000 X109.615 Y128.848
G1 F1200 X91.149 Y110.382 E119.92499
G0 F6000 X91.149 Y110.948
G1 F1200 X109.05 Y128.848 E120.76697
G0 F6000 X108.484 Y128.848
G1 F1200 X91.149 Y111.514 E121.58234
G0 F6000 X91.149 Y112.079
G1 F1200 X107.918 Y128.848 E122.3711
G0 F6000 X107.352 Y128.848
G1 F1200 X91.149 Y112.645 E123.13324
G0 F6000 X91.149 Y113.211
G1 F1200 X106.787 Y128.848 E123.86878
G0 F6000 X106.221 Y128.848
G1 F1200 X91.149 Y113.777 E124.5777
G0 F6000 X91.149 Y114.342
G1 F1200 X105.655 Y128.848 E125.26001
G0 F6000 X105.09 Y128.848
G1 F1200 X91.149 Y114.908 E125.91573
G0 F6000 X91.149 Y115.474
G1 F1200 X104.524 Y128.848 E126.54483
G0 F6000 X103.958 Y128.848
G1 F1200 X91.149 Y116.039 E127.14732
G0 F6000 X91.149 Y116.605
G1 F1200 X103.393 Y128.848 E127.72322
G0 F6000 X102.827 Y128.848
G1 F1200 X91.149 Y117.171 E128.27249
G0 F6000 X91.149 Y117.736
G1 F1200 X102.261 Y128.848 E128.79517
G0 F6000 X101.696 Y128.848
G1 F1200 X91.149 Y118.302 E129.29124
G0 F6000 X91.149 Y118.868
G1 F1200 X101.13 Y128.848 E129.7607
G0 F6000 X100.564 Y128.848
G1 F1200 X91.149 Y119.433 E130.20355
G0 F6000 X91.149 Y119.999
G1 F1200 X99.999 Y128.848 E130.6198
G0 F6000 X99.433 Y128.848
G1 F1200 X91.149 Y120.565 E131.00943
G0 F6000 X91.149 Y121.13
G1 F1200 X98.867 Y128.848 E131.37246
G0 F6000 X98.301 Y128.848
G1 F1200 X91.149 Y121.696 E131.70887
G0 F6000 X91.149 Y122.262
G1 F1200 X97.736 Y128.848 E132.01868
G0 F6000 X97.17 Y128.848
G1 F1200 X91.149 Y122.827 E132.30189
G0 F6000 X91.149 Y123.393
G1 F1200 X96.604 Y128.848 E132.55848
G0 F6000 X96.039 Y128.848
G1 F1200 X91.149 Y123.959 E132.78846
G0 F6000 X91.149 Y124.525
G1 F1200 X95.473 Y128.848 E132.99183
G0 F6000 X94.907 Y128.848
G1 F1200 X91.149 Y125.09 E133.16859
G0 F6000 X91.149 Y125.656
G1 F1200 X94.342 Y128.848 E133.31876
G0 F6000 X93.776 Y128.848
G1 F1200 X91.149 Y126.222 E133.4423
G0 F6000 X91.149 Y126.787
G1 F1200 X93.21 Y128.848 E133.53924
G0 F6000 X92.645 Y128.848
G1 F1200 X91.149 Y127.353 E133.60959
G0 F6000 X91.149 Y127.919
G1 F1200 X92.079 Y128.848 E133.65331
G0 F6000 X91.513 Y128.848
G1 F1200 X91.149 Y128.484 E133.67043
G0 F6000 X90.8 Y128.484
G1 F2700 E128.67043
;MESH:NONMESH
G0 F300 X90.8 Y128.484 Z0.4
G0 F6000 X90.71 Y128.484
G0 X90.782 Y129.218
G0 X129.4 Y129.4
;TIME_ELAPSED:216.931318
;LAYER:1
M106 S85
;TYPE:WALL-INNER
;MESH:b.stl
G1 F2700 E133.67043
G1 F1800 X90.6 Y129.4 E134.96092
G1 X90.6 Y90.6 E136.25142
G1 X129.4 Y90.6 E137.54191
G1 X129.4 Y129.4 E138.8324
G0 F9000 X129.8 Y129.8
;TYPE:WALL-OUTER
G1 F1800 X90.2 Y129.8 E140.1495
G1 X90.2 Y90.2 E141.4666
G1 X129.8 Y90.2 E142.78371
G1 X129.8 Y129.8 E144.10081
G0 F9000 X129.53 Y129.53
G0 X129.29 Y129.01
G0 X129.01 Y129.01
;TYPE:SKIN
G1 F1800 X90.99 Y129.01 E145.36536
G1 X90.99 Y90.99 E146.62991
G1 X129.01 Y90.99 E147.89446
G1 X129.01 Y129.01 E149.15901
G0 F9000 X128.848 Y128.537
G1 F1800 X128.537 Y128.849 E149.17366
G0 F9000 X127.971 Y128.849
G1 F1800 X128.848 Y127.972 E149.21491
G0 F9000 X128.848 Y127.406
G1 F1800 X127.405 Y128.849 E149.28279
G0 F9000 X126.84 Y128.849
G1 F1800 X128.848 Y126.84 E149.37726
G0 F9000 X128.848 Y126.275
G1 F1800 X126.274 Y128.849 E149.49833
G0 F9000 X125.708 Y128.849
G1 F1800 X128.848 Y125.709 E149.64603
G0 F9000 X128.848 Y125.143
G1 F1800 X125.143 Y128.849 E149.82032
G0 F9000 X124.577 Y128.849
G1 F1800 X128.848 Y124.578 E150.02122
G0 F9000 X128.848 Y124.012
G1 F1800 X124.011 Y128.849 E150.24874
G0 F9000 X123.445 Y128.849
G1 F1800 X128.848 Y123.446 E150.50288
G0 F9000 X128.848 Y122.881
G1 F1800 X122.88 Y128.849 E150.78359
G0 F9000 X122.314 Y128.849
G1 F1800 X128.848 Y122.315 E151.09093
G0 F9000 X128.848 Y121.749
G1 F1800 X121.748 Y128.849 E151.4249
G0 F9000 X121.183 Y128.849
G1 F1800 X128.848 Y121.183 E151.78546
G0 F9000 X128.848 Y120.618
G1 F1800 X120.617 Y128.849 E152.17262
G0 F9000 X120.051 Y128.849
G1 F1800 X128.848 Y120.052 E152.5864
G0 F9000 X128.848 Y119.486
G1 F1800 X119.486 Y128.849 E153.02679
G0 F9000 X118.92 Y128.849
G1 F1800 X128.848 Y118.921 E153.49377
G0 F9000 X128.848 Y118.355
G1 F1800 X118.354 Y128.849 E153.98737
G0 F9000 X117.789 Y128.849
G1 F1800 X128.848 Y117.789 E154.50758
G0 F9000 X128.848 Y117.224
G1 F1800 X117.223 Y128.849 E155.05438
G0 F9000 X116.657 Y128.849
G1 F1800 X128.848 Y116.658 E155.62781
G0 F9000 X128.848 Y116.092
G1 F1800 X116.092 Y128.849 E156.22784
G0 F9000 X115.526 Y128.849
G1 F1800 X128.848 Y115.527 E156.85446
G0 F9000 X128.848 Y114.961
G1 F1800 X114.96 Y128.849 E157.50771
G0 F9000 X114.395 Y128.849
G1 F1800 X128.848 Y114.395 E158.18756
G0 F9000 X128.848 Y113.83
G1 F1800 X113.829 Y128.849 E158.89401
G0 F9000 X113.263 Y128.849
G1 F1800 X128.848 Y113.264 E159.62708
G0 F9000 X128.848 Y112.698
G1 F1800 X112.697 Y128.849 E160.38677
G0 F9000 X112.132 Y128.849
G1 F1800 X128.848 Y112.132 E161.17306
G0 F9000 X128.848 Y111.567
G1 F1800 X111.566 Y128.849 E161.98596
G0 F9000 X111 Y128.849
G1 F1800 X128.848 Y111.001 E162.82547
G0 F9000 X128.848 Y110.435
G1 F1800 X110.435 Y128.849 E163.69159
G0 F9000 X109.869 Y128.849
G1 F1800 X128.848 Y109.87 E164.5843
G0 F9000 X128.848 Y109.304
G1 F1800 X109.303 Y128.849 E165.50364
G0 F9000 X108.738 Y128.849
G1 F1800 X128.848 Y108.738 E166.44957
G0 F9000 X128.848 Y108.173
G1 F1800 X108.172 Y128.849 E167.42211
G0 F9000 X107.606 Y128.849
G1 F1800 X128.848 Y107.607 E168.42127
G0 F9000 X128.848 Y107.041
G1 F1800 X107.041 Y128.849 E169.44703
G0 F9000 X106.475 Y128.849
G1 F1800 X128.848 Y106.476 E170.49938
G0 F9000 X128.848 Y105.91
G1 F1800 X105.909 Y128.849 E171.57836
G0 F9000 X105.344 Y128.849
G1 F1800 X128.848 Y105.344 E172.68394
G0 F9000 X128.848 Y104.779
G1 F1800 X104.778 Y128.849 E173.81612
G0 F9000 X104.212 Y128.849
G1 F1800 X128.848 Y104.213 E174.97492
G0 F9000 X128.848 Y103.647
G1 F1800 X103.647 Y128.849 E176.16033
G0 F9000 X103.081 Y128.849
G1 F1800 X128.848 Y103.082 E177.37233
G0 F9000 X128.848 Y102.516
G1 F1800 X102.515 Y128.849 E178.61095
G0 F9000 X101.949 Y128.849
G1 F1800 X128.848 Y101.95 E179.8762
G0 F9000 X128.848 Y101.384
G1 F1800 X101.384 Y128.849 E181.16804
G0 F9000 X100.818 Y128.849
G1 F1800 X128.848 Y100.819 E182.48649
G0 F9000 X128.848 Y100.253
G1 F1800 X100.252 Y128.849 E183.83156
G0 F9000 X99.687 Y128.849
G1 F1800 X128.848 Y99.687 E185.20322
G0 F9000 X128.848 Y99.122
G1 F1800 X99.121 Y128.849 E186.60149
G0 F9000 X98.555 Y128.849
G1 F1800 X128.848 Y98.556 E188.02638
G0 F9000 X128.848 Y97.99
G1 F1800 X97.99 Y128.849 E189.47787
G0 F9000 X97.424 Y128.849
G1 F1800 X128.848 Y97.425 E190.95596
G0 F9000 X128.848 Y96.859
G1 F1800 X96.858 Y128.849 E192.46067
G0 F9000 X96.293 Y128.849
G1 F1800 X128.848 Y96.293 E193.99198
G0 F9000 X128.848 Y95.728
G1 F1800 X95.727 Y128.849 E195.54989
G0 F9000 X95.161 Y128.849
G1 F1800 X128.848 Y95.162 E197.13442
G0 F9000 X128.848 Y94.596
G1 F1800 X94.596 Y128.849 E198.74556
G0 F9000 X94.03 Y128.849
G1 F1800 X128.848 Y94.031 E200.38329
G0 F9000 X128.848 Y93.465
G1 F1800 X93.464 Y128.849 E202.04764
G0 F9000 X92.898 Y128.849
G1 F1800 X128.848 Y92.899 E203.73862
G0 F9000 X128.848 Y92.334
G1 F1800 X92.333 Y128.849 E205.45617
G0 F9000 X91.767 Y128.849
G1 F1800 X128.848 Y91.768 E207.20035
G0 F9000 X128.848 Y91.202
G1 F1800 X91.201 Y128.849 E208.97115
G0 F9000 X91.15 Y128.335
G1 F1800 X128.336 Y91.149 E210.72027
G0 F9000 X127.77 Y91.149
G1 F1800 X91.15 Y127.769 E212.44276
G0 F9000 X91.15 Y127.204
G1 F1800 X127.204 Y91.149 E214.13865
G0 F9000 X126.639 Y91.149
G1 F1800 X91.15 Y126.638 E215.80795
G0 F9000 X91.15 Y126.072
G1 F1800 X126.073 Y91.149 E217.45062
G0 F9000 X125.507 Y91.149
G1 F1800 X91.15 Y125.507 E219.06669
G0 F9000 X91.15 Y124.941
G1 F1800 X124.942 Y91.149 E220.65616
G0 F9000 X124.376 Y91.149
G1 F1800 X91.15 Y124.375 E222.21901
G0 F9000 X91.15 Y123.81
G1 F1800 X123.81 Y91.149 E223.75526
G0 F9000 X123.245 Y91.149
G1 F1800 X91.15 Y123.244 E225.26491
G0 F9000 X91.15 Y122.678
G1 F1800 X122.679 Y91.149 E226.74794
G0 F9000 X122.113 Y91.149
G1 F1800 X91.15 Y122.113 E228.20436
G0 F9000 X91.15 Y121.547
G1 F1800 X121.548 Y91.149 E229.63419
G0 F9000 X120.982 Y91.149
G1 F1800 X91.15 Y120.981 E231.0374
G0 F9000 X91.15 Y120.416
G1 F1800 X120.416 Y91.149 E232.41401
G0 F9000 X119.851 Y91.149
G1 F1800 X91.15 Y119.85 E233.76401
G0 F9000 X91.15 Y119.284
G1 F1800 X119.285 Y91.149 E235.0874
G0 F9000 X118.719 Y91.149
G1 F1800 X91.15 Y118.718 E236.38416
G0 F9000 X91.15 Y118.153
G1 F1800 X118.154 Y91.149 E237.65434
G0 F9000 X117.588 Y91.149
