;FLAVOR:Marlin
;TIME:2268
;Filament used: 2.32621m
;Layer height: 0.2
;MINX:85.2
;MINY:84.335
;MINZ:0.2
;MAXX:135.665
;MAXY:135.665
;MAXZ:4
;Generated with Cura_SteamEngine 4.12.1
M140 S50
M105
M190 S50
M104 S200
M105
M109 S200
M82 ;absolute extrusion mode
M201 X500.00 Y500.00 Z100.00 E5000.00 ;Setup machine max acceleration
M203 X500.00 Y500.00 Z10.00 E50.00 ;Setup machine max feedrate
M204 P500.00 R1000.00 T500.00 ;Setup Print/Retract/Travel acceleration
M205 X8.00 Y8.00 Z0.40 E5.00 ;Setup Jerk
M220 S100 ;Reset Feedrate
M221 S100 ;Reset Flowrate

G28 ;Home

G92 E0 ;Reset Extruder
G1 Z2.0 F3000 ;Move Z Axis up
G1 X10.1 Y20 Z0.28 F5000.0 ;Move to start position
G1 X10.1 Y200.0 Z0.28 F1500.0 E15 ;Draw the first line
G1 X10.4 Y200.0 Z0.28 F5000.0 ;Move to side a little
G1 X10.4 Y20 Z0.28 F1500.0 E30 ;Draw the second line
G92 E0 ;Reset Extruder
G1 Z2.0 F3000 ;Move Z Axis up

G92 E0
G92 E0
G1 F2700 E-5
;LAYER_COUNT:20
;LAYER:0
M107
;MESH:c.stl
G0 F6000 X134.4 Y134.4 Z0.2
;TYPE:WALL-INNER
G1 F2700 E0
G1 F1200 X85.6 Y134.4 E1.62309
G1 X85.6 Y85.6 E3.24619
G1 X134.4 Y85.6 E4.86928
G1 X134.4 Y134.4 E6.49238
G0 F6000 X134.8 Y134.8
;TYPE:WALL-OUTER
G1 F1200 X85.2 Y134.8 E8.14208
G1 X85.2 Y85.2 E9.79178
G1 X134.8 Y85.2 E11.44149
G1 X134.8 Y134.8 E13.09119
G0 F6000 X134.53 Y134.53
G0 X134.29 Y134.01
G0 X134.01 Y134.01
;TYPE:SKIN
G1 F1200 X85.99 Y134.01 E14.68834
G1 X85.99 Y85.99 E16.28549
G1 X134.01 Y85.99 E17.88264
G1 X134.01 Y134.01 E19.4798
G1 F2700 E14.4798
G0 F6000 X134.29 Y134.01
G0 X134.29 Y86.332
G1 F2700 E19.4798
G0 F6000 X133.849 Y86.332
G1 F1200 X133.667 Y86.15 E19.48836
G0 F6000 X133.102 Y86.15
G1 F1200 X133.849 Y86.897 E19.52349
G0 F6000 X133.849 Y87.463
G1 F1200 X132.536 Y86.15 E19.58525
G0 F6000 X131.97 Y86.15
G1 F1200 X133.849 Y88.029 E19.67364
G0 F6000 X133.849 Y88.594
G1 F1200 X131.405 Y86.15 E19.78859
G0 F6000 X130.839 Y86.15
G1 F1200 X133.849 Y89.16 E19.93017
G0 F6000 X133.849 Y89.726
G1 F1200 X130.273 Y86.15 E20.09838
G0 F6000 X129.708 Y86.15
G1 F1200 X133.849 Y90.291 E20.29316
G0 F6000 X133.849 Y90.857
G1 F1200 X129.142 Y86.15 E20.51456
G0 F6000 X128.576 Y86.15
G1 F1200 X133.849 Y91.423 E20.76259
G0 F6000 X133.849 Y91.988
G1 F1200 X128.011 Y86.15 E21.03719
G0 F6000 X127.445 Y86.15
G1 F1200 X133.849 Y92.554 E21.33841
G0 F6000 X133.849 Y93.12
G1 F1200 X126.879 Y86.15 E21.66626
G0 F6000 X126.314 Y86.15
G1 F1200 X133.849 Y93.685 E22.02068
G0 F6000 X133.849 Y94.251
G1 F1200 X125.748 Y86.15 E22.40173
G0 F6000 X125.182 Y86.15
G1 F1200 X133.849 Y94.817 E22.8094
G0 F6000 X133.849 Y95.383
G1 F1200 X124.616 Y86.15 E23.24369
G0 F6000 X124.051 Y86.15
G1 F1200 X133.849 Y95.948 E23.70456
G0 F6000 X133.849 Y96.514
G1 F1200 X123.485 Y86.15 E24.19205
G0 F6000 X122.919 Y86.15
G1 F1200 X133.849 Y97.08 E24.70616
G0 F6000 X133.849 Y97.645
G1 F1200 X122.354 Y86.15 E25.24685
G0 F6000 X121.788 Y86.15
G1 F1200 X133.849 Y98.211 E25.81417
G0 F6000 X133.849 Y98.777
G1 F1200 X121.222 Y86.15 E26.4081
G0 F6000 X120.657 Y86.15
G1 F1200 X133.849 Y99.342 E27.02861
G0 F6000 X133.849 Y99.908
G1 F1200 X120.091 Y86.15 E27.67575
G0 F6000 X119.525 Y86.15
G1 F1200 X133.849 Y100.474 E28.3495
G0 F6000 X133.849 Y101.039
G1 F1200 X118.96 Y86.15 E29.04984
G0 F6000 X118.394 Y86.15
G1 F1200 X133.849 Y101.605 E29.77679
G0 F6000 X133.849 Y102.171
G1 F1200 X117.828 Y86.15 E30.53037
G0 F6000 X117.263 Y86.15
G1 F1200 X133.849 Y102.736 E31.31053
G0 F6000 X133.849 Y103.302
G1 F1200 X116.697 Y86.15 E32.1173
G0 F6000 X116.131 Y86.15
G1 F1200 X133.849 Y103.868 E32.9507
G0 F6000 X133.849 Y104.434
G1 F1200 X115.565 Y86.15 E33.81073
G0 F6000 X115 Y86.15
G1 F1200 X133.849 Y104.999 E34.69733
G0 F6000 X133.849 Y105.565
G1 F1200 X114.434 Y86.15 E35.61055
G0 F6000 X113.868 Y86.15
G1 F1200 X133.849 Y106.131 E36.55039
G0 F6000 X133.849 Y106.696
G1 F1200 X113.303 Y86.15 E37.51681
G0 F6000 X112.737 Y86.15
G1 F1200 X133.849 Y107.262 E38.50986
G0 F6000 X133.849 Y107.828
G1 F1200 X112.171 Y86.15 E39.52952
G0 F6000 X111.606 Y86.15
G1 F1200 X133.849 Y108.393 E40.57577
G0 F6000 X133.849 Y108.959
G1 F1200 X111.04 Y86.15 E41.64863
G0 F6000 X110.474 Y86.15
G1 F1200 X133.849 Y109.525 E42.74812
G0 F6000 X133.849 Y110.09
G1 F1200 X109.909 Y86.15 E43.87418
G0 F6000 X109.343 Y86.15
G1 F1200 X133.849 Y110.656 E45.02687
G0 F6000 X133.849 Y111.222
G1 F1200 X108.777 Y86.15 E46.20618
G0 F6000 X108.212 Y86.15
G1 F1200 X133.849 Y111.787 E47.41207
G0 F6000 X133.849 Y112.353
G1 F1200 X107.646 Y86.15 E48.64458
G0 F6000 X107.08 Y86.15
G1 F1200 X133.849 Y112.919 E49.90371
G0 F6000 X133.849 Y113.484
G1 F1200 X106.515 Y86.15 E51.18942
G0 F6000 X105.949 Y86.15
G1 F1200 X133.849 Y114.05 E52.50175
G0 F6000 X133.849 Y114.616
G1 F1200 X105.383 Y86.15 E53.8407
G0 F6000 X104.817 Y86.15
G1 F1200 X133.849 Y115.182 E55.20628
G0 F6000 X133.849 Y115.747
G1 F1200 X104.252 Y86.15 E56.59843
G0 F6000 X103.686 Y86.15
G1 F1200 X133.849 Y116.313 E58.0172
G0 F6000 X133.849 Y116.879
G1 F1200 X103.12 Y86.15 E59.4626
G0 F6000 X102.555 Y86.15
G1 F1200 X133.849 Y117.444 E60.93457
G0 F6000 X133.849 Y118.01
G1 F1200 X101.989 Y86.15 E62.43317
G0 F6000 X101.423 Y86.15
G1 F1200 X133.849 Y118.576 E63.95839
G0 F6000 X133.849 Y119.141
G1 F1200 X100.858 Y86.15 E65.51019
G0 F6000 X100.292 Y86.15
G1 F1200 X133.849 Y119.707 E67.08861
G0 F6000 X133.849 Y120.273
G1 F1200 X99.726 Y86.15 E68.69365
G0 F6000 X99.161 Y86.15
G1 F1200 X133.849 Y120.838 E70.32526
G0 F6000 X133.849 Y121.404
G1 F1200 X98.595 Y86.15 E71.9835
G0 F6000 X98.029 Y86.15
G1 F1200 X133.849 Y121.97 E73.66837
G0 F6000 X133.849 Y122.535
G1 F1200 X97.464 Y86.15 E75.37981
G0 F6000 X96.898 Y86.15
G1 F1200 X133.849 Y123.101 E77.11787
G0 F6000 X133.849 Y123.667
G1 F1200 X96.332 Y86.15 E78.88255
G0 F6000 X95.767 Y86.15
G1 F1200 X133.849 Y124.233 E80.67384
G0 F6000 X133.849 Y124.798
G1 F1200 X95.201 Y86.15 E82.49172
G0 F6000 X94.635 Y86.15
G1 F1200 X133.849 Y125.364 E84.33623
G0 F6000 X133.849 Y125.93
G1 F1200 X94.069 Y86.15 E86.20735
G0 F6000 X93.504 Y86.15
G1 F1200 X133.849 Y126.495 E88.10506
G0 F6000 X133.849 Y127.061
G1 F1200 X92.938 Y86.15 E90.02939
G0 F6000 X92.372 Y86.15
G1 F1200 X133.849 Y127.627 E91.98034
G0 F6000 X133.849 Y128.192
G1 F1200 X91.807 Y86.15 E93.95787
G0 F6000 X91.241 Y86.15
G1 F1200 X133.849 Y128.758 E95.96202
G0 F6000 X133.849 Y129.324
G1 F1200 X90.675 Y86.15 E97.99279
G0 F6000 X90.11 Y86.15
G1 F1200 X133.849 Y129.889 E100.05014
G0 F6000 X133.849 Y130.455
G1 F1200 X89.544 Y86.15 E102.13411
G0 F6000 X88.978 Y86.15
G1 F1200 X133.849 Y131.021 E104.2447
G0 F6000 X133.849 Y131.586
G1 F1200 X88.413 Y86.15 E106.38187
G0 F6000 X87.847 Y86.15
G1 F1200 X133.849 Y132.152 E108.54567
G0 F6000 X133.849 Y132.718
G1 F1200 X87.281 Y86.15 E110.73608
G0 F6000 X86.716 Y86.15
G1 F1200 X133.849 Y133.283 E112.95307
G0 F6000 X133.849 Y133.849
G1 F1200 X86.149 Y86.149 E115.19673
G0 F6000 X86.149 Y86.715
G1 F1200 X133.283 Y133.848 E117.41375
G0 F6000 X132.717 Y133.848
G1 F1200 X86.149 Y87.281 E119.60414
G0 F6000 X86.149 Y87.846
G1 F1200 X132.151 Y133.848 E121.76794
G0 F6000 X131.586 Y133.848
G1 F1200 X86.149 Y88.412 E123.90513
G0 F6000 X86.149 Y88.978
G1 F1200 X131.02 Y133.848 E126.0157
G0 F6000 X130.454 Y133.848
G1 F1200 X86.149 Y89.543 E128.09967
G0 F6000 X86.149 Y90.109
G1 F1200 X129.889 Y133.848 E130.15704
G0 F6000 X129.323 Y133.848
G1 F1200 X86.149 Y90.675 E132.18779
G0 F6000 X86.149 Y91.24
G1 F1200 X128.757 Y133.848 E134.19194
G0 F6000 X128.192 Y133.848
G1 F1200 X86.149 Y91.806 E136.16949
G0 F6000 X86.149 Y92.372
G1 F1200 X127.626 Y133.848 E138.12042
G0 F6000 X127.06 Y133.848
G1 F1200 X86.149 Y92.937 E140.04475
G0 F6000 X86.149 Y93.503
G1 F1200 X126.495 Y133.848 E141.94248
G0 F6000 X125.929 Y133.848
G1 F1200 X86.149 Y94.069 E143.81358
G0 F6000 X86.149 Y94.634
G1 F1200 X125.363 Y133.848 E145.65809
G0 F6000 X124.797 Y133.848
G1 F1200 X86.149 Y95.2 E147.47597
G0 F6000 X86.149 Y95.766
G1 F1200 X124.232 Y133.848 E149.26726
G0 F6000 X123.666 Y133.848
G1 F1200 X86.149 Y96.331 E151.03194
G0 F6000 X86.149 Y96.897
G1 F1200 X123.1 Y133.848 E152.77
G0 F6000 X122.535 Y133.848
G1 F1200 X86.149 Y97.463 E154.48146
G0 F6000 X86.149 Y98.029
G1 F1200 X121.969 Y133.848 E156.1663
G0 F6000 X121.403 Y133.848
G1 F1200 X86.149 Y98.594 E157.82454
G0 F6000 X86.149 Y99.16
G1 F1200 X120.838 Y133.848 E159.45618
G0 F6000 X120.272 Y133.848
G1 F1200 X86.149 Y99.726 E161.0612
G0 F6000 X86.149 Y100.291
G1 F1200 X119.706 Y133.848 E162.63962
G0 F6000 X119.141 Y133.848
G1 F1200 X86.149 Y100.857 E164.19144
G0 F6000 X86.149 Y101.423
G1 F1200 X118.575 Y133.848 E165.71664
G0 F6000 X118.009 Y133.848
G1 F1200 X86.149 Y101.988 E167.21523
G0 F6000 X86.149 Y102.554
G1 F1200 X117.444 Y133.848 E168.68723
G0 F6000 X116.878 Y133.848
G1 F1200 X86.149 Y103.12 E170.1326
G0 F6000 X86.149 Y103.685
G1 F1200 X116.312 Y133.848 E171.55138
G0 F6000 X115.747 Y133.848
G1 F1200 X86.149 Y104.251 E172.94356
G0 F6000 X86.149 Y104.817
G1 F1200 X115.181 Y133.848 E174.30911
G0 F6000 X114.615 Y133.848
G1 F1200 X86.149 Y105.382 E175.64806
G0 F6000 X86.149 Y105.948
G1 F1200 X114.049 Y133.848 E176.96039
G0 F6000 X113.484 Y133.848
G1 F1200 X86.149 Y106.514 E178.24612
G0 F6000 X86.149 Y107.08
G1 F1200 X112.918 Y133.848 E179.50523
G0 F6000 X112.352 Y133.848
G1 F1200 X86.149 Y107.645 E180.73774
G0 F6000 X86.149 Y108.211
G1 F1200 X111.787 Y133.848 E181.94365
G0 F6000 X111.221 Y133.848
G1 F1200 X86.149 Y108.777 E183.12294
G0 F6000 X86.149 Y109.342
G1 F1200 X110.655 Y133.848 E184.27562
G0 F6000 X110.09 Y133.848
G1 F1200 X86.149 Y109.908 E185.40171
G0 F6000 X86.149 Y110.474
G1 F1200 X109.524 Y133.848 E186.50118
G0 F6000 X108.958 Y133.848
G1 F1200 X86.149 Y111.039 E187.57404
G0 F6000 X86.149 Y111.605
G1 F1200 X108.393 Y133.848 E188.62031
G0 F6000 X107.827 Y133.848
G1 F1200 X86.149 Y112.171 E189.63995
G0 F6000 X86.149 Y112.736
G1 F1200 X107.261 Y133.848 E190.63299
G0 F6000 X106.696 Y133.848
G1 F1200 X86.149 Y113.302 E191.59944
G0 F6000 X86.149 Y113.868
G1 F1200 X106.13 Y133.848 E192.53926
G0 F6000 X105.564 Y133.848
G1 F1200 X86.149 Y114.433 E193.45248
G0 F6000 X86.149 Y114.999
G1 F1200 X104.998 Y133.848 E194.33908
G0 F6000 X104.433 Y133.848
G1 F1200 X86.149 Y115.565 E195.19908
G0 F6000 X86.149 Y116.13
G1 F1200 X103.867 Y133.848 E196.03248
G0 F6000 X103.301 Y133.848
G1 F1200 X86.149 Y116.696 E196.83926
G0 F6000 X86.149 Y117.262
G1 F1200 X102.736 Y133.848 E197.61944
G0 F6000 X102.17 Y133.848
G1 F1200 X86.149 Y117.828 E198.37299
G0 F6000 X86.149 Y118.393
G1 F1200 X101.604 Y133.848 E199.09995
G0 F6000 X101.039 Y133.848
G1 F1200 X86.149 Y118.959 E199.8003
G0 F6000 X86.149 Y119.525
G1 F1200 X100.473 Y133.848 E200.47404
G0 F6000 X99.907 Y133.848
G1 F1200 X86.149 Y120.09 E201.12117
G0 F6000 X86.149 Y120.656
G1 F1200 X99.342 Y133.848 E201.74171
G0 F6000 X98.776 Y133.848
G1 F1200 X86.149 Y121.222 E202.33562
G0 F6000 X86.149 Y121.787
G1 F1200 X98.21 Y133.848 E202.90293
G0 F6000 X97.645 Y133.848
G1 F1200 X86.149 Y122.353 E203.44364
G0 F6000 X86.149 Y122.919
G1 F1200 X97.079 Y133.848 E203.95773
G0 F6000 X96.513 Y133.848
G1 F1200 X86.149 Y123.484 E204.44522
G0 F6000 X86.149 Y124.05
G1 F1200 X95.948 Y133.848 E204.90612
G0 F6000 X95.382 Y133.848
G1 F1200 X86.149 Y124.616 E205.34038
G0 F6000 X86.149 Y125.181
G1 F1200 X94.816 Y133.848 E205.74805
G0 F6000 X94.25 Y133.848
G1 F1200 X86.149 Y125.747 E206.1291
G0 F6000 X86.149 Y126.313
G1 F1200 X93.685 Y133.848 E206.48355
G0 F6000 X93.119 Y133.848
G1 F1200 X86.149 Y126.878 E206.81139
G0 F6000 X86.149 Y127.444
G1 F1200 X92.553 Y133.848 E207.11262
G0 F6000 X91.988 Y133.848
G1 F1200 X86.149 Y128.01 E207.38724
G0 F6000 X86.149 Y128.576
G1 F1200 X91.422 Y133.848 E207.63525
G0 F6000 X90.856 Y133.848
G1 F1200 X86.149 Y129.141 E207.85665
G0 F6000 X86.149 Y129.707
G1 F1200 X90.291 Y133.848 E208.05145
G0 F6000 X89.725 Y133.848
G1 F1200 X86.149 Y130.273 E208.21963
G0 F6000 X86.149 Y130.838
G1 F1200 X89.159 Y133.848 E208.36121
G0 F6000 X88.594 Y133.848
G1 F1200 X86.149 Y131.404 E208.4762
G0 F6000 X86.149 Y131.97
G1 F1200 X88.028 Y133.848 E208.56455
G0 F6000 X87.462 Y133.848
G1 F1200 X86.149 Y132.535 E208.62631
G0 F6000 X86.149 Y133.101
G1 F1200 X86.897 Y133.848 E208.66147
G0 F6000 X86.331 Y133.848
G1 F1200 X86.149 Y133.667 E208.67001
G0 F6000 X85.8 Y133.667
G1 F2700 E203.67001
;MESH:NONMESH
G0 F300 X85.8 Y133.667 Z0.4
G0 F6000 X85.71 Y133.667
G0 X85.782 Y134.218
G0 X134.4 Y134.4
;TIME_ELAPSED:332.403043
;LAYER:1
M106 S85
;TYPE:WALL-INNER
;MESH:c.stl
G1 F2700 E208.67001
G1 F1800 X85.6 Y134.4 E210.29311
G1 X85.6 Y85.6 E211.9162
G1 X134.4 Y85.6 E213.5393
G1 X134.4 Y134.4 E215.16239
G0 F9000 X134.8 Y134.8
;TYPE:WALL-OUTER
G1 F1800 X85.2 Y134.8 E216.81209
G1 X85.2 Y85.2 E218.4618
G1 X134.8 Y85.2 E220.1115
G1 X134.8 Y134.8 E221.7612
G0 F9000 X134.53 Y134.53
G0 X134.29 Y134.01
G0 X134.01 Y134.01
;TYPE:SKIN
G1 F1800 X85.99 Y134.01 E223.35835
G1 X85.99 Y85.99 E224.9555
G1 X134.01 Y85.99 E226.55266
G1 X134.01 Y134.01 E228.14981
G0 F9000 X133.848 Y133.72
G1 F1800 X133.719 Y133.849 E228.15588
G0 F9000 X133.153 Y133.849
G1 F1800 X133.848 Y133.154 E228.18857
G0 F9000 X133.848 Y132.588
G1 F1800 X132.588 Y133.849 E228.24786
G0 F9000 X132.022 Y133.849
G1 F1800 X133.848 Y132.023 E228.33375
G0 F9000 X133.848 Y131.457
G1 F1800 X131.456 Y133.849 E228.44626
G0 F9000 X130.891 Y133.849
G1 F1800 X133.848 Y130.891 E228.58537
G0 F9000 X133.848 Y130.326
G1 F1800 X130.325 Y133.849 E228.75108
G0 F9000 X129.759 Y133.849
G1 F1800 X133.848 Y129.76 E228.94341
G0 F9000 X133.848 Y129.194
G1 F1800 X129.194 Y133.849 E229.16235
G0 F9000 X128.628 Y133.849
G1 F1800 X133.848 Y128.629 E229.40788
G0 F9000 X133.848 Y128.063
G1 F1800 X128.062 Y133.849 E229.68004
G0 F9000 X127.497 Y133.849
G1 F1800 X133.848 Y127.497 E229.97879
G0 F9000 X133.848 Y126.932
G1 F1800 X126.931 Y133.849 E230.30415
G0 F9000 X126.365 Y133.849
G1 F1800 X133.848 Y126.366 E230.65612
G0 F9000 X133.848 Y125.8
G1 F1800 X125.799 Y133.849 E231.03472
G0 F9000 X125.234 Y133.849
G1 F1800 X133.848 Y125.234 E231.43992
G0 F9000 X133.848 Y124.669
G1 F1800 X124.668 Y133.849 E231.87172
G0 F9000 X124.102 Y133.849
G1 F1800 X133.848 Y124.103 E232.33014
G0 F9000 X133.848 Y123.537
G1 F1800 X123.537 Y133.849 E232.81517
G0 F9000 X122.971 Y133.849
G1 F1800 X133.848 Y122.972 E233.32679
G0 F9000 X133.848 Y122.406
G1 F1800 X122.405 Y133.849 E233.86503
G0 F9000 X121.84 Y133.849
G1 F1800 X133.848 Y121.84 E234.42987
G0 F9000 X133.848 Y121.275
G1 F1800 X121.274 Y133.849 E235.02132
G0 F9000 X120.708 Y133.849
G1 F1800 X133.848 Y120.709 E235.63938
G0 F9000 X133.848 Y120.143
G1 F1800 X120.143 Y133.849 E236.28405
G0 F9000 X119.577 Y133.849
G1 F1800 X133.848 Y119.578 E236.95531
G0 F9000 X133.848 Y119.012
G1 F1800 X119.011 Y133.849 E237.6532
G0 F9000 X118.446 Y133.849
G1 F1800 X133.848 Y118.446 E238.37768
G0 F9000 X133.848 Y117.881
G1 F1800 X117.88 Y133.849 E239.12877
G0 F9000 X117.314 Y133.849
G1 F1800 X133.848 Y117.315 E239.90648
G0 F9000 X133.848 Y116.749
G1 F1800 X116.748 Y133.849 E240.71081
G0 F9000 X116.183 Y133.849
G1 F1800 X133.848 Y116.184 E241.54172
G0 F9000 X133.848 Y115.618
G1 F1800 X115.617 Y133.849 E242.39925
G0 F9000 X115.051 Y133.849
G1 F1800 X133.848 Y115.052 E243.2834
G0 F9000 X133.848 Y114.486
G1 F1800 X114.486 Y133.849 E244.19415
G0 F9000 X113.92 Y133.849
G1 F1800 X133.848 Y113.921 E245.1315
G0 F9000 X133.848 Y113.355
G1 F1800 X113.354 Y133.849 E246.09548
G0 F9000 X112.789 Y133.849
G1 F1800 X133.848 Y112.789 E247.08605
G0 F9000 X133.848 Y112.224
G1 F1800 X112.223 Y133.849 E248.10323
G0 F9000 X111.657 Y133.849
G1 F1800 X133.848 Y111.658 E249.14702
G0 F9000 X133.848 Y111.092
G1 F1800 X111.092 Y133.849 E250.21742
G0 F9000 X110.526 Y133.849
G1 F1800 X133.848 Y110.527 E251.31442
G0 F9000 X133.848 Y109.961
G1 F1800 X109.96 Y133.849 E252.43803
G0 F9000 X109.395 Y133.849
G1 F1800 X133.848 Y109.395 E253.58825
G0 F9000 X133.848 Y108.83
G1 F1800 X108.829 Y133.849 E254.76507
G0 F9000 X108.263 Y133.849
G1 F1800 X133.848 Y108.264 E255.96851
G0 F9000 X133.848 Y107.698
G1 F1800 X107.698 Y133.849 E257.19855
G0 F9000 X107.132 Y133.849
G1 F1800 X133.848 Y107.133 E258.45519
G0 F9000 X133.848 Y106.567
G1 F1800 X106.566 Y133.849 E259.73845
G0 F9000 X106 Y133.849
G1 F1800 X133.848 Y106.001 E261.04833
G0 F9000 X133.848 Y105.435
