;FLAVOR:Marlin
;TIME:654
;Filament used: 0.600123m
;Layer height: 0.2
;MINX:90.2
;MINY:95.375
;MINZ:0.2
;MAXX:129.4
;MAXY:124.8
;MAXZ:4
;Generated with Cura_SteamEngine 4.12.1
M140 S50
M105
M190 S50
M104 S200
M105
M109 S200
M82 ;absolute extrusion mode
M201 X500.00 Y500.00 Z100.00 E5000.00 ;Setup machine max acceleration
M203 X500.00 Y500.00 Z10.00 E50.00 ;Setup machine max feedrate
M204 P500.00 R1000.00 T500.00 ;Setup Print/Retract/Travel acceleration
M205 X8.00 Y8.00 Z0.40 E5.00 ;Setup Jerk
M220 S100 ;Reset Feedrate
M221 S100 ;Reset Flowrate

G28 ;Home

G92 E0 ;Reset Extruder
G1 Z2.0 F3000 ;Move Z Axis up
G1 X10.1 Y20 Z0.28 F5000.0 ;Move to start position
G1 X10.1 Y200.0 Z0.28 F1500.0 E15 ;Draw the first line
G1 X10.4 Y200.0 Z0.28 F5000.0 ;Move to side a little
G1 X10.4 Y20 Z0.28 F1500.0 E30 ;Draw the second line
G92 E0 ;Reset Extruder
G1 Z2.0 F3000 ;Move Z Axis up

G92 E0
G92 E0
G1 F2700 E-5
;LAYER_COUNT:20
;LAYER:0
M107
;MESH:triangle.stl
G0 F6000 X128.201 Y124.4 Z0.2
;TYPE:WALL-INNER
G1 F2700 E0
G1 F1200 X127.603 Y124.4 E0.01989
G1 X90.6 Y124.4 E1.25061
G1 X90.6 Y96.574 E2.17611
G1 X90.6 Y96.175 E2.18938
G1 X127.723 Y124.041 E3.73325
G1 X128.201 Y124.4 E3.74369
G0 F6000 X128.706 Y124.569
G0 X129.4 Y124.8
;TYPE:WALL-OUTER
G1 F1200 X90.2 Y124.8 E5.04749
G1 X90.2 Y95.375 E6.02617
G1 X129.4 Y124.8 E7.65641
G0 F6000 X128.706 Y124.569
G0 X127.031 Y124.29
G0 X127.031 Y124.01
;TYPE:SKIN
G1 F1200 X90.99 Y124.01 E8.85514
G1 X90.99 Y96.955 E9.755
G1 X127.031 Y124.01 E11.25389
G0 F6000 X126.111 Y123.849
G1 F1200 X124.793 Y122.53 E11.31591
G0 F6000 X125.058 Y122.179
G0 X127.608 Y124.202
G0 X124.98 Y124.29
G0 X124.98 Y123.849
G1 F1200 X120.254 Y119.123 E11.53821
G0 F6000 X120.519 Y118.772
G0 X118.25 Y117.069
G0 X117.985 Y117.42
G1 F1200 X124.414 Y123.849 E11.84061
G0 F6000 X123.849 Y123.849
G1 F1200 X115.716 Y115.716 E12.22316
G0 F6000 X115.981 Y115.366
G0 X113.712 Y113.663
G0 X113.448 Y114.013
G1 F1200 X123.283 Y123.849 E12.68579
G0 F6000 X122.717 Y123.849
G1 F1200 X111.179 Y112.31 E13.22852
G0 F6000 X111.443 Y111.96
G0 X109.175 Y110.257
G0 X108.91 Y110.607
G1 F1200 X122.151 Y123.849 E13.85136
G0 F6000 X121.586 Y123.849
G1 F1200 X106.64 Y108.903 E14.55438
G0 F6000 X106.905 Y108.553
G0 X104.636 Y106.849
G0 X104.371 Y107.2
G1 F1200 X121.02 Y123.849 E15.3375
G0 F6000 X120.454 Y123.849
G1 F1200 X102.102 Y105.496 E16.20074
G0 F6000 X102.366 Y105.146
G0 X100.097 Y103.443
G0 X99.833 Y103.793
G1 F1200 X119.889 Y123.849 E17.14411
G0 F6000 X119.323 Y123.849
G1 F1200 X97.564 Y102.089 E18.16761
G0 F6000 X97.828 Y101.739
G0 X95.56 Y100.037
G0 X95.296 Y100.387
G1 F1200 X118.757 Y123.849 E19.27117
G0 F6000 X118.192 Y123.849
G1 F1200 X93.026 Y98.683 E20.4549
G0 F6000 X93.29 Y98.333
G0 X90.793 Y96.56
G0 X90.71 Y98.503
G0 X91.149 Y98.503
G1 F1200 X116.495 Y123.849 E21.6471
G0 F6000 X117.06 Y123.849
G1 F1200 X91.149 Y97.937 E22.8659
G0 F6000 X91.149 Y97.372
G1 F1200 X117.626 Y123.849 E24.1113
G0 F6000 X117.626 Y124.29
G0 X115.929 Y124.29
G0 X115.929 Y123.849
G1 F1200 X91.149 Y99.069 E25.27687
G0 F6000 X91.149 Y99.634
G1 F1200 X115.363 Y123.849 E26.41585
G0 F6000 X114.798 Y123.849
G1 F1200 X91.149 Y100.2 E27.52822
G0 F6000 X91.149 Y100.766
G1 F1200 X114.232 Y123.849 E28.61398
G0 F6000 X113.666 Y123.849
G1 F1200 X91.149 Y101.331 E29.67313
G0 F6000 X91.149 Y101.897
G1 F1200 X113.101 Y123.849 E30.70569
G0 F6000 X112.535 Y123.849
G1 F1200 X91.149 Y102.463 E31.71162
G0 F6000 X91.149 Y103.028
G1 F1200 X111.969 Y123.849 E32.69095
G0 F6000 X111.403 Y123.849
G1 F1200 X91.149 Y103.594 E33.64366
G0 F6000 X91.149 Y104.16
G1 F1200 X110.838 Y123.849 E34.56977
G0 F6000 X110.272 Y123.849
G1 F1200 X91.149 Y104.726 E35.46926
G0 F6000 X91.149 Y105.291
G1 F1200 X109.706 Y123.849 E36.34214
G0 F6000 X109.141 Y123.849
G1 F1200 X91.149 Y105.857 E37.18843
G0 F6000 X91.149 Y106.423
G1 F1200 X108.575 Y123.849 E38.0081
G0 F6000 X108.009 Y123.849
G1 F1200 X91.149 Y106.988 E38.80116
G0 F6000 X91.149 Y107.554
G1 F1200 X107.444 Y123.849 E39.56763
G0 F6000 X106.878 Y123.849
G1 F1200 X91.149 Y108.12 E40.30748
G0 F6000 X91.149 Y108.685
G1 F1200 X106.312 Y123.849 E41.02072
G0 F6000 X105.747 Y123.849
G1 F1200 X91.149 Y109.251 E41.70737
G0 F6000 X91.149 Y109.817
G1 F1200 X105.181 Y123.849 E42.36739
G0 F6000 X104.615 Y123.849
G1 F1200 X91.149 Y110.382 E43.00081
G0 F6000 X91.149 Y110.948
G1 F1200 X104.05 Y123.849 E43.60763
G0 F6000 X103.484 Y123.849
G1 F1200 X91.149 Y111.514 E44.18783
G0 F6000 X91.149 Y112.079
G1 F1200 X102.918 Y123.849 E44.74144
G0 F6000 X102.352 Y123.849
G1 F1200 X91.149 Y112.645 E45.26841
G0 F6000 X91.149 Y113.211
G1 F1200 X101.787 Y123.849 E45.76879
G0 F6000 X101.221 Y123.849
G1 F1200 X91.149 Y113.777 E46.24255
G0 F6000 X91.149 Y114.342
G1 F1200 X100.655 Y123.849 E46.68971
G0 F6000 X100.09 Y123.849
G1 F1200 X91.149 Y114.908 E47.11026
G0 F6000 X91.149 Y115.474
G1 F1200 X99.524 Y123.849 E47.5042
G0 F6000 X98.958 Y123.849
G1 F1200 X91.149 Y116.039 E47.87153
G0 F6000 X91.149 Y116.605
G1 F1200 X98.393 Y123.849 E48.21227
G0 F6000 X97.827 Y123.849
G1 F1200 X91.149 Y117.171 E48.52638
G0 F6000 X91.149 Y117.736
G1 F1200 X97.261 Y123.849 E48.81389
G0 F6000 X96.696 Y123.849
G1 F1200 X91.149 Y118.302 E49.07481
G0 F6000 X91.149 Y118.868
G1 F1200 X96.13 Y123.849 E49.3091
G0 F6000 X95.564 Y123.849
G1 F1200 X91.149 Y119.433 E49.51679
G0 F6000 X91.149 Y119.999
G1 F1200 X94.999 Y123.849 E49.69788
G0 F6000 X94.433 Y123.849
G1 F1200 X91.149 Y120.565 E49.85235
G0 F6000 X91.149 Y121.13
G1 F1200 X93.867 Y123.849 E49.98022
G0 F6000 X93.302 Y123.849
G1 F1200 X91.149 Y121.696 E50.08149
G0 F6000 X91.149 Y122.262
G1 F1200 X92.736 Y123.849 E50.15614
G0 F6000 X92.17 Y123.849
G1 F1200 X91.149 Y122.827 E50.20419
G0 F6000 X91.149 Y123.393
G1 F1200 X91.604 Y123.849 E50.22561
G1 F2700 E45.22561
G0 F6000 X91.604 Y124.29
G0 X127.608 Y124.202
G0 X122.788 Y120.475
G1 F2700 E50.22561
G0 F6000 X122.523 Y120.826
G1 F1200 X125.546 Y123.849 E50.36781
G0 F6000 X125.546 Y124.29
G0 X127.19 Y124.29
G0 X127.19 Y124.079
;TYPE:SKIN
G1 F1200 X127.35 Y124.239 E50.37157
G0 F6000 X127.374 Y123.98
G1 F1200 X127.63 Y124.236 E50.37759
G1 F2700 E45.37759
G0 F6000 X127.665 Y124.221
G0 X90.793 Y96.56
G0 X90.71 Y96.815
G1 F2700 E50.37759
G0 F6000 X90.875 Y96.815
G1 F1200 X90.759 Y96.699 E50.38032
G0 F6000 X90.4 Y96.057
G1 F1200 X90.504 Y95.878 E50.38662
G1 F2700 E45.38662
G0 F6000 X90.444 Y95.864
G0 X128.366 Y124.406
G1 F2700 E50.38662
G1 F1200 X128.584 Y124.624 E50.39175
;MESH:NONMESH
G0 F300 X128.584 Y124.624 Z0.4
G0 F6000 X128.201 Y124.4
;TIME_ELAPSED:90.331967
;LAYER:1
M106 S85
;TYPE:WALL-INNER
;MESH:triangle.stl
G1 F1800 X127.603 Y124.4 E50.41164
G1 X90.6 Y124.4 E51.64236
G1 X90.6 Y96.574 E52.56786
G1 X90.6 Y96.175 E52.58113
G1 X127.723 Y124.041 E54.125
G1 X128.201 Y124.4 E54.13544
G0 F9000 X128.706 Y124.569
G0 X129.4 Y124.8
;TYPE:WALL-OUTER
G1 F1800 X90.2 Y124.8 E55.43924
G1 X90.2 Y95.375 E56.41792
G1 X129.4 Y124.8 E58.04816
G0 F9000 X128.706 Y124.569
G0 X127.031 Y124.29
G0 X127.031 Y124.01
;TYPE:SKIN
G1 F1800 X90.99 Y124.01 E59.24689
G1 X90.99 Y96.955 E60.14674
G1 X127.031 Y124.01 E61.64564
G0 F9000 X126.34 Y123.692
G1 F1800 X126.183 Y123.849 E61.65302
G0 F9000 X126.017 Y123.449
G1 F1800 X125.617 Y123.849 E61.67184
G0 F9000 X125.051 Y123.849
G1 F1800 X125.695 Y123.206 E61.70211
G0 F9000 X125.372 Y122.963
G1 F1800 X124.486 Y123.849 E61.74378
G0 F9000 X123.92 Y123.849
G1 F1800 X125.049 Y122.721 E61.79686
G0 F9000 X124.725 Y122.478
G1 F1800 X123.354 Y123.849 E61.86135
G0 F9000 X122.789 Y123.849
G1 F1800 X124.402 Y122.236 E61.93722
G0 F9000 X124.079 Y121.993
G1 F1800 X122.223 Y123.849 E62.02452
G0 F9000 X121.657 Y123.849
G1 F1800 X123.756 Y121.751 E62.12323
G0 F9000 X123.433 Y121.508
G1 F1800 X121.092 Y123.849 E62.23334
G0 F9000 X120.526 Y123.849
G1 F1800 X123.11 Y121.265 E62.35488
G0 F9000 X122.786 Y121.023
G1 F1800 X119.96 Y123.849 E62.48781
G0 F9000 X119.394 Y123.849
G1 F1800 X122.463 Y120.78 E62.63217
G0 F9000 X122.14 Y120.538
G1 F1800 X118.829 Y123.849 E62.78791
G0 F9000 X118.263 Y123.849
G1 F1800 X121.817 Y120.295 E62.95508
G0 F9000 X121.494 Y120.053
G1 F1800 X117.697 Y123.849 E63.13365
G0 F9000 X117.132 Y123.849
G1 F1800 X121.171 Y119.81 E63.32363
G0 F9000 X120.848 Y119.568
G1 F1800 X116.566 Y123.849 E63.52502
G0 F9000 X116 Y123.849
G1 F1800 X120.524 Y119.325 E63.73782
G0 F9000 X120.201 Y119.083
G1 F1800 X115.435 Y123.849 E63.962
G0 F9000 X114.869 Y123.849
G1 F1800 X119.878 Y118.84 E64.1976
G0 F9000 X119.555 Y118.598
G1 F1800 X114.303 Y123.849 E64.44462
G0 F9000 X113.738 Y123.849
G1 F1800 X119.232 Y118.355 E64.70304
G0 F9000 X118.909 Y118.112
G1 F1800 X113.172 Y123.849 E64.97289
G0 F9000 X112.606 Y123.849
G1 F1800 X118.586 Y117.87 E65.25415
G0 F9000 X118.262 Y117.627
G1 F1800 X112.041 Y123.849 E65.54679
G0 F9000 X111.475 Y123.849
G1 F1800 X117.939 Y117.385 E65.85083
G0 F9000 X117.616 Y117.142
G1 F1800 X110.909 Y123.849 E66.16631
G0 F9000 X110.344 Y123.849
G1 F1800 X117.293 Y116.9 E66.49317
G0 F9000 X116.971 Y116.657
G1 F1800 X109.778 Y123.849 E66.83148
G0 F9000 X109.212 Y123.849
G1 F1800 X116.647 Y116.414 E67.1812
G0 F9000 X116.324 Y116.171
G1 F1800 X108.646 Y123.849 E67.54235
G0 F9000 X108.081 Y123.849
G1 F1800 X116.001 Y115.929 E67.91489
G0 F9000 X115.678 Y115.686
G1 F1800 X107.515 Y123.849 E68.29885
G0 F9000 X106.949 Y123.849
G1 F1800 X115.355 Y115.444 E68.69422
G0 F9000 X115.032 Y115.201
G1 F1800 X106.384 Y123.849 E69.10099
G0 F9000 X105.818 Y123.849
G1 F1800 X114.708 Y114.959 E69.51915
G0 F9000 X114.385 Y114.716
G1 F1800 X105.252 Y123.849 E69.94874
G0 F9000 X104.687 Y123.849
G1 F1800 X114.062 Y114.474 E70.38971
G0 F9000 X113.739 Y114.231
G1 F1800 X104.121 Y123.849 E70.84211
G0 F9000 X103.555 Y123.849
G1 F1800 X113.416 Y113.989 E71.30592
G0 F9000 X113.093 Y113.746
G1 F1800 X102.99 Y123.849 E71.78113
G0 F9000 X102.424 Y123.849
G1 F1800 X112.77 Y113.504 E72.26775
G0 F9000 X112.446 Y113.261
G1 F1800 X101.858 Y123.849 E72.76578
G0 F9000 X101.293 Y123.849
G1 F1800 X112.123 Y113.018 E73.27521
G0 F9000 X111.8 Y112.776
G1 F1800 X100.727 Y123.849 E73.79605
G0 F9000 X100.161 Y123.849
G1 F1800 X111.477 Y112.533 E74.32832
G0 F9000 X111.154 Y112.291
G1 F1800 X99.595 Y123.849 E74.872
G0 F9000 X99.03 Y123.849
G1 F1800 X110.831 Y112.048 E75.42708
G0 F9000 X110.508 Y111.806
G1 F1800 X98.464 Y123.849 E75.99357
G0 F9000 X97.898 Y123.849
G1 F1800 X110.184 Y111.563 E76.57147
G0 F9000 X109.861 Y111.321
G1 F1800 X97.333 Y123.849 E77.16075
G0 F9000 X96.767 Y123.849
G1 F1800 X109.538 Y111.078 E77.76146
G0 F9000 X109.215 Y110.836
G1 F1800 X96.201 Y123.849 E78.37357
G0 F9000 X95.636 Y123.849
G1 F1800 X108.892 Y110.593 E78.99709
G0 F9000 X108.569 Y110.35
G1 F1800 X95.07 Y123.849 E79.63204
G0 F9000 X94.504 Y123.849
G1 F1800 X108.246 Y110.107 E80.27843
G0 F9000 X107.923 Y109.865
G1 F1800 X93.939 Y123.849 E80.93619
G0 F9000 X93.373 Y123.849
G1 F1800 X107.6 Y109.622 E81.60539
G0 F9000 X107.277 Y109.38
G1 F1800 X92.807 Y123.849 E82.28599
G0 F9000 X92.242 Y123.849
G1 F1800 X106.954 Y109.137 E82.97799
G0 F9000 X106.63 Y108.895
G1 F1800 X91.676 Y123.849 E83.68138
G0 F9000 X91.15 Y123.81
G1 F1800 X106.307 Y108.652 E84.39435
G0 F9000 X105.984 Y108.41
G1 F1800 X91.15 Y123.244 E85.09209
G0 F9000 X91.15 Y122.678
G1 F1800 X105.661 Y108.167 E85.77464
G0 F9000 X105.338 Y107.925
G1 F1800 X91.15 Y122.113 E86.442
G0 F9000 X91.15 Y121.547
G1 F1800 X105.015 Y107.682 E87.09417
G0 F9000 X104.692 Y107.439
G1 F1800 X91.15 Y120.981 E87.73115
G0 F9000 X91.15 Y120.416
G1 F1800 X104.368 Y107.197 E88.3529
G0 F9000 X104.045 Y106.954
G1 F1800 X91.15 Y119.85 E88.95947
G0 F9000 X91.15 Y119.284
G1 F1800 X103.722 Y106.712 E89.55082
G0 F9000 X103.399 Y106.469
G1 F1800 X91.15 Y118.718 E90.12697
G0 F9000 X91.15 Y118.153
G1 F1800 X103.076 Y106.227 E90.68793
G0 F9000 X102.753 Y105.984
G1 F1800 X91.15 Y117.587 E91.2337
G0 F9000 X91.15 Y117.021
G1 F1800 X102.43 Y105.742 E91.76426
G0 F9000 X102.106 Y105.499
G1 F1800 X91.15 Y116.456 E92.27962
G0 F9000 X91.15 Y115.89
G1 F1800 X101.783 Y105.257 E92.77976
G0 F9000 X101.46 Y105.014
G1 F1800 X91.15 Y115.324 E93.26471
G0 F9000 X91.15 Y114.759
G1 F1800 X101.137 Y104.772 E93.73447
G0 F9000 X100.814 Y104.529
G1 F1800 X91.15 Y114.193 E94.18904
G0 F9000 X91.15 Y113.627
G1 F1800 X100.491 Y104.286 E94.62841
G0 F9000 X100.168 Y104.044
G1 F1800 X91.15 Y113.062 E95.05259
G0 F9000 X91.15 Y112.496
G1 F1800 X99.845 Y103.801 E95.46157
G0 F9000 X99.522 Y103.558
G1 F1800 X91.15 Y111.93 E95.85537
G0 F9000 X91.15 Y111.365
G1 F1800 X99.199 Y103.316 E96.23397
G0 F9000 X98.876 Y103.073
G1 F1800 X91.15 Y110.799 E96.59737
G0 F9000 X91.15 Y110.233
G1 F1800 X98.553 Y102.831 E96.94556
G0 F9000 X98.229 Y102.588
G1 F1800 X91.15 Y109.668 E97.27856
G0 F9000 X91.15 Y109.102
G1 F1800 X97.906 Y102.345 E97.59637
G0 F9000 X97.583 Y102.103
G1 F1800 X91.15 Y108.536 E97.89896
G0 F9000 X91.15 Y107.97
G1 F1800 X97.26 Y101.86 E98.18635
G0 F9000 X96.937 Y101.618
G1 F1800 X91.15 Y107.405 E98.45855
G0 F9000 X91.15 Y106.839
G1 F1800 X96.614 Y101.375 E98.71556
G0 F9000 X96.29 Y101.133
G1 F1800 X91.15 Y106.273 E98.95733
G0 F9000 X91.15 Y105.708
G1 F1800 X95.967 Y100.89 E99.18393
G0 F9000 X95.644 Y100.648
G1 F1800 X91.15 Y105.142 E99.39532
G0 F9000 X91.15 Y104.576
G1 F1800 X95.321 Y100.405 E99.59151
G0 F9000 X94.998 Y100.163
G1 F1800 X91.15 Y104.011 E99.77251
G0 F9000 X91.15 Y103.445
G1 F1800 X94.675 Y99.92 E99.93831
G0 F9000 X94.352 Y99.678
G1 F1800 X91.15 Y102.879 E100.0889
G0 F9000 X91.15 Y102.314
G1 F1800 X94.028 Y99.435 E100.2243
G0 F9000 X93.705 Y99.192
G1 F1800 X91.15 Y101.748 E100.3445
G0 F9000 X91.15 Y101.182
G1 F1800 X93.382 Y98.95 E100.44949
G0 F9000 X93.059 Y98.707
G1 F1800 X91.15 Y100.617 E100.5393
G0 F9000 X91.15 Y100.051
G1 F1800 X92.736 Y98.465 E100.6139
G0 F9000 X92.413 Y98.222
G1 F1800 X91.15 Y99.485 E100.67331
G0 F9000 X91.15 Y98.919
G1 F1800 X92.09 Y97.98 E100.7175
G0 F9000 X91.766 Y97.737
G1 F1800 X91.15 Y98.354 E100.7465
G0 F9000 X91.15 Y97.788
G1 F1800 X91.444 Y97.494 E100.76033
G0 F9000 X91.708 Y97.145
G0 X90.793 Y96.56
G0 X90.759 Y96.764
;TYPE:SKIN
G1 F1800 X90.914 Y96.609 E100.76398
G1 F2700 E95.76398
G0 F9000 X90.944 Y96.571
G0 X127.608 Y124.202
G0 X127.207 Y124.29
G1 F2700 E100.76398
G0 F9000 X127.207 Y124.24
G1 F1800 X127.427 Y124.019 E100.76916
G0 F9000 X127.588 Y124.141
G1 F1800 X127.489 Y124.24 E100.77149
G0 F9000 X128.416 Y124.444
G1 F1800 X128.595 Y124.548 E100.77947
G1 F2700 E95.77947
G0 F9000 X128.518 Y124.5
G0 X90.466 Y95.949
G1 F2700 E100.77947
G0 F9000 X90.543 Y95.849
G1 F1800 X90.375 Y96.018 E100.78344
G0 F9000 X90.532 Y96.373
G1 F2700 E95.78344
;MESH:NONMESH
G0 F300 X90.532 Y96.373 Z0.6
G0 F9000 X128.201 Y124.4
;TIME_ELAPSED:153.746217
;LAYER:2
M106 S170
;TYPE:WALL-INNER
;MESH:triangle.stl
G1 F2700 E100.78344
G1 F2400 X127.603 Y124.4 E100.80333
G1 X90.6 Y124.4 E102.03405
G1 X90.6 Y96.574 E102.95955
G1 X90.6 Y96.175 E102.97282
G1 X127.723 Y124.041 E104.51669
G1 X128.201 Y124.4 E104.52713
G0 F12000 X128.706 Y124.569
G0 X129.4 Y124.8
;TYPE:WALL-OUTER
G1 F2400 X90.2 Y124.8 E105.83092
G1 X90.2 Y95.375 E106.8096
G1 X129.4 Y124.8 E108.43985
G0 F12000 X128.706 Y124.569
G0 X127.031 Y124.29
G0 X127.031 Y124.01
;TYPE:SKIN
G1 F2400 X90.99 Y124.01 E109.63858
G1 X90.99 Y96.955 E110.53843
G1 X127.031 Y124.01 E112.03733
G0 F12000 X126.111 Y123.849
G1 F2400 X124.793 Y122.53 E112.09934
G0 F12000 X125.058 Y122.179
G0 X127.608 Y124.202
G0 X124.98 Y124.29
G0 X124.98 Y123.849
G1 F2400 X120.254 Y119.123 E112.32164
G0 F12000 X120.519 Y118.772
G0 X118.25 Y117.069
G0 X117.985 Y117.42
G1 F2400 X124.414 Y123.849 E112.62404
G0 F12000 X123.849 Y123.849
G1 F2400 X115.716 Y115.716 E113.00659
G0 F12000 X115.981 Y115.366
G0 X113.712 Y113.663
G0 X113.448 Y114.013
G1 F2400 X123.283 Y123.849 E113.46922
G0 F12000 X122.717 Y123.849
G1 F2400 X111.179 Y112.31 E114.01196
G0 F12000 X111.443 Y111.96
G0 X109.175 Y110.257
G0 X108.91 Y110.607
G1 F2400 X122.151 Y123.849 E114.6348
G0 F12000 X121.586 Y123.849
G1 F2400 X106.64 Y108.903 E115.33781
G0 F12000 X106.905 Y108.553
G0 X104.636 Y106.849
G0 X104.371 Y107.2
G1 F2400 X121.02 Y123.849 E116.12093
G0 F12000 X120.454 Y123.849
G1 F2400 X102.102 Y105.496 E116.98418
G0 F12000 X102.366 Y105.146
G0 X100.097 Y103.443
