;FLAVOR:Marlin
;TIME:17487
;Filament used: 16.8656m
;Layer height: 0.2
;MINX:26.835
;MINY:64.835
;MINZ:0.2
;MAXX:193.165
;MAXY:155.165
;MAXZ:12
;Generated with Cura_SteamEngine 4.12.1
M140 S50
M105
M190 S50
M104 S200
M105
M109 S200
M82 ;absolute extrusion mode
M201 X500.00 Y500.00 Z100.00 E5000.00 ;Setup machine max acceleration
M203 X500.00 Y500.00 Z10.00 E50.00 ;Setup machine max feedrate
M204 P500.00 R1000.00 T500.00 ;Setup Print/Retract/Travel acceleration
M205 X8.00 Y8.00 Z0.40 E5.00 ;Setup Jerk
M220 S100 ;Reset Feedrate
M221 S100 ;Reset Flowrate

G28 ;Home

G92 E0 ;Reset Extruder
G1 Z2.0 F3000 ;Move Z Axis up
G1 X10.1 Y20 Z0.28 F5000.0 ;Move to start position
G1 X10.1 Y200.0 Z0.28 F1500.0 E15 ;Draw the first line
G1 X10.4 Y200.0 Z0.28 F5000.0 ;Move to side a little
G1 X10.4 Y20 Z0.28 F1500.0 E30 ;Draw the second line
G92 E0 ;Reset Extruder
G1 Z2.0 F3000 ;Move Z Axis up

G92 E0
G92 E0
G1 F2700 E-5
;LAYER_COUNT:60
;LAYER:0
M107
;MESH:cover.stl
G0 F6000 X101.324 Y124.201 Z0.2
;TYPE:WALL-INNER
G1 F2700 E0
G1 F1200 X101.313 Y124.145 E0.0019
G1 X101.377 Y123.499 E0.02349
G1 X101.574 Y122.493 E0.05758
G1 X101.866 Y121.314 E0.09798
G1 X102.238 Y120.031 E0.14241
G1 X102.654 Y118.766 E0.1867
G1 X103.091 Y117.613 E0.22772
G1 X103.508 Y116.7 E0.2611
G1 X103.91 Y116.086 E0.28551
G1 X104.385 Y115.611 E0.30785
G1 X104.907 Y115.265 E0.32868
G1 X105.447 Y115.054 E0.34796
G1 X105.959 Y114.982 E0.36516
G1 X106.413 Y115.04 E0.38038
G1 X106.793 Y115.219 E0.39435
G1 X107.101 Y115.529 E0.40889
G1 X107.354 Y116.074 E0.42887
G1 X107.478 Y116.843 E0.45478
G1 X107.453 Y117.79 E0.48629
G1 X107.278 Y118.842 E0.52176
G1 X106.963 Y119.926 E0.5593
G1 X106.516 Y120.995 E0.59784
G1 X105.958 Y121.979 E0.63547
G1 X105.31 Y122.818 E0.67073
G1 X104.776 Y123.319 E0.69508
G1 X104.189 Y123.724 E0.7188
G1 X103.554 Y124.046 E0.74248
G1 X102.919 Y124.266 E0.76483
G1 X102.322 Y124.378 E0.78503
G1 X101.819 Y124.378 E0.80176
G1 X101.448 Y124.285 E0.81449
G1 X101.324 Y124.201 E0.81947
G0 F6000 X100.962 Y124.44
;TYPE:WALL-OUTER
G1 F1200 X100.909 Y124.164 E0.82881
G1 X100.981 Y123.435 E0.85318
G1 X101.181 Y122.416 E0.88772
G1 X101.482 Y121.203 E0.92929
G1 X101.858 Y119.906 E0.9742
G1 X102.28 Y118.624 E1.01909
G1 X102.722 Y117.459 E1.06053
G1 X103.157 Y116.505 E1.09541
G1 X103.598 Y115.832 E1.12217
G1 X104.128 Y115.302 E1.1471
G1 X104.724 Y114.907 E1.17088
G1 X105.344 Y114.665 E1.19302
G1 X105.958 Y114.578 E1.21364
G1 X106.527 Y114.651 E1.23272
G1 X107.027 Y114.887 E1.25111
G1 X107.434 Y115.296 E1.2703
G1 X107.74 Y115.956 E1.2945
G1 X107.879 Y116.816 E1.32347
G1 X107.852 Y117.831 E1.35724
G1 X107.67 Y118.927 E1.3942
G1 X107.341 Y120.058 E1.43337
G1 X106.875 Y121.172 E1.47354
G1 X106.291 Y122.202 E1.51292
G1 X105.606 Y123.09 E1.55022
G1 X105.032 Y123.628 E1.57639
G1 X104.391 Y124.071 E1.6023
G1 X103.712 Y124.415 E1.62762
G1 X103.023 Y124.653 E1.65186
G1 X102.359 Y124.778 E1.67434
G1 X101.77 Y124.778 E1.69393
G1 X101.283 Y124.656 E1.71062
G1 X100.962 Y124.44 E1.72349
G0 F6000 X101.328 Y124.198
G0 X101.724 Y123.953
;TYPE:SKIN
G1 F1200 X101.763 Y123.548 E1.73703
G1 X101.952 Y122.587 E1.7696
G1 X102.24 Y121.423 E1.80948
G1 X102.608 Y120.152 E1.85349
G1 X103.019 Y118.904 E1.89719
G1 X103.446 Y117.775 E1.93734
G1 X103.852 Y116.888 E1.96979
G1 X104.218 Y116.328 E1.99204
G1 X104.63 Y115.916 E2.01142
G1 X105.087 Y115.613 E2.02965
G1 X105.546 Y115.434 E2.04604
G1 X105.964 Y115.375 E2.06008
G1 X106.299 Y115.418 E2.07131
G1 X106.564 Y115.543 E2.08106
G1 X106.778 Y115.757 E2.09113
G1 X106.977 Y116.187 E2.10688
G1 X107.087 Y116.868 E2.12983
G1 X107.063 Y117.758 E2.15944
G1 X106.898 Y118.753 E2.19299
G1 X106.596 Y119.792 E2.22897
G1 X106.165 Y120.822 E2.26611
G1 X105.63 Y121.767 E2.30223
G1 X105.023 Y122.552 E2.33523
G1 X104.533 Y123.012 E2.35759
G1 X103.982 Y123.393 E2.37987
G1 X103.41 Y123.684 E2.40121
G1 X102.821 Y123.887 E2.42193
G1 X102.282 Y123.988 E2.44017
G1 X101.866 Y123.988 E2.45401
G1 X101.724 Y123.953 E2.45887
G0 F6000 X101.945 Y123.441
G1 F1200 X102.32 Y123.816 E2.47651
G0 F6000 X102.795 Y123.726
G1 F1200 X102.039 Y122.969 E2.5121
G0 F6000 X102.137 Y122.502
G1 F1200 X103.216 Y123.581 E2.56285
G0 F6000 X103.605 Y123.404
G1 F1200 X102.249 Y122.048 E2.62663
G0 F6000 X102.361 Y121.594
G1 F1200 X103.97 Y123.204 E2.70234
G0 F6000 X104.305 Y122.972
G1 F1200 X102.484 Y121.152 E2.78797
G0 F6000 X102.611 Y120.713
G1 F1200 X104.612 Y122.714 E2.88209
G0 F6000 X104.904 Y122.441
G1 F1200 X102.738 Y120.274 E2.98399
G0 F6000 X102.876 Y119.846
G1 F1200 X105.152 Y122.122 E3.09105
G0 F6000 X105.399 Y121.804
G1 F1200 X103.016 Y119.421 E3.20314
G0 F6000 X103.156 Y118.995
G1 F1200 X105.619 Y121.459 E3.31901
G0 F6000 X105.824 Y121.097
G1 F1200 X103.31 Y118.583 E3.43726
G0 F6000 X103.465 Y118.173
G1 F1200 X106.027 Y120.735 E3.55777
G0 F6000 X106.195 Y120.337
G1 F1200 X103.625 Y117.767 E3.67866
G0 F6000 X103.802 Y117.379
G1 F1200 X106.362 Y119.938 E3.79905
G0 F6000 X106.509 Y119.52
G1 F1200 X103.98 Y116.99 E3.91803
G0 F6000 X104.2 Y116.645
G1 F1200 X106.635 Y119.081 E4.03259
G0 F6000 X106.755 Y118.634
G1 F1200 X104.446 Y116.325 E4.1412
G0 F6000 X104.729 Y116.043
G1 F1200 X106.836 Y118.149 E4.24028
G0 F6000 X106.906 Y117.654
G1 F1200 X105.068 Y115.817 E4.32671
G0 F6000 X105.457 Y115.639
G1 F1200 X106.92 Y117.103 E4.39555
G0 F6000 X106.863 Y116.48
G1 F1200 X105.926 Y115.542 E4.43965
G0 F6000 X105.878 Y115.196
G1 F2700 E-0.56035
G0 F6000 X105.868 Y115.106
G0 X104.985 Y115.418
G0 X103.35 Y116.611
G0 X102.362 Y116.162
G0 X80.861 Y118.471
G0 X80.686 Y121.599
G0 X80.605 Y118.499
G0 X44.664 Y122.362
G0 X43.776 Y121.743
G0 X41.275 Y123.195
;TYPE:WALL-INNER
G1 F2700 E4.43965
G1 F1200 X40.964 Y123.022 E4.45148
G1 X40.708 Y122.473 E4.47163
G1 X40.651 Y121.376 E4.50816
G1 X40.945 Y119.745 E4.56329
G1 X41.307 Y118.691 E4.60035
G1 X41.822 Y117.617 E4.63997
G1 X42.444 Y116.596 E4.67973
G1 X43.116 Y115.701 E4.71696
G1 X43.811 Y114.961 E4.75072
G1 X44.444 Y114.456 E4.77766
G1 X44.93 Y114.226 E4.79554
G1 X45.167 Y114.224 E4.80342
G1 X45.351 Y114.356 E4.81095
G1 X45.568 Y114.756 E4.82609
G1 X45.72 Y115.421 E4.84878
G1 X45.762 Y116.264 E4.87685
G1 X45.68 Y117.227 E4.909
G1 X45.473 Y118.227 E4.94296
G1 X45.142 Y119.212 E4.97752
G1 X44.699 Y120.106 E5.01071
G1 X43.638 Y121.625 E5.07233
G1 X42.639 Y122.631 E5.11949
G1 X41.81 Y123.126 E5.1516
G1 X41.275 Y123.195 E5.16954
G0 F6000 X41.196 Y123.609
;TYPE:WALL-OUTER
G1 F1200 X40.657 Y123.308 E5.19008
G1 X40.313 Y122.572 E5.2171
G1 X40.249 Y121.347 E5.2579
G1 X40.556 Y119.648 E5.31532
G1 X40.938 Y118.534 E5.35449
G1 X41.47 Y117.426 E5.39537
G1 X42.111 Y116.374 E5.43635
G1 X42.812 Y115.44 E5.47519
G1 X43.54 Y114.665 E5.51055
G1 X44.23 Y114.114 E5.53992
G1 X44.838 Y113.827 E5.56228
G1 X45.294 Y113.823 E5.57745
G1 X45.66 Y114.086 E5.59244
G1 X45.945 Y114.612 E5.61234
G1 X46.117 Y115.363 E5.63796
G1 X46.163 Y116.278 E5.66843
G1 X46.077 Y117.283 E5.70198
G1 X45.861 Y118.33 E5.73754
G1 X45.513 Y119.364 E5.77383
G1 X45.043 Y120.312 E5.80902
G1 X43.946 Y121.883 E5.87275
G1 X42.889 Y122.947 E5.92263
G1 X41.942 Y123.513 E5.95933
G1 X41.196 Y123.609 E5.98434
G0 F6000 X41.279 Y123.177
G0 X41.353 Y122.792
;TYPE:SKIN
G1 F1200 X41.264 Y122.743 E5.98772
G1 X41.094 Y122.379 E6.00108
G1 X41.043 Y121.399 E6.03372
G1 X41.323 Y119.844 E6.08627
G1 X41.672 Y118.83 E6.12194
G1 X42.159 Y117.813 E6.15945
G1 X42.768 Y116.815 E6.19833
G1 X43.416 Y115.951 E6.23425
G1 X44.076 Y115.248 E6.26632
G1 X44.649 Y114.791 E6.2907
G1 X45.021 Y114.616 E6.30437
G1 X45.052 Y114.622 E6.30542
G1 X45.2 Y114.896 E6.31578
G1 X45.332 Y115.471 E6.3354
G1 X45.372 Y116.265 E6.36185
G1 X45.294 Y117.165 E6.39189
G1 X45.097 Y118.122 E6.42439
G1 X44.778 Y119.069 E6.45763
G1 X44.366 Y119.9 E6.48848
G1 X43.336 Y121.375 E6.54831
G1 X42.396 Y122.322 E6.59269
G1 X41.677 Y122.751 E6.62054
G1 X41.353 Y122.792 E6.6314
G0 F6000 X41.673 Y122.566
G1 F1200 X41.242 Y122.135 E6.65167
G0 F6000 X41.21 Y121.538
G1 F1200 X42.027 Y122.354 E6.69008
G0 F6000 X42.364 Y122.126
G1 F1200 X41.27 Y121.032 E6.74154
G0 F6000 X41.357 Y120.553
G1 F1200 X42.647 Y121.842 E6.80219
G0 F6000 X42.928 Y121.558
G1 F1200 X41.443 Y120.073 E6.87204
G0 F6000 X41.565 Y119.629
G1 F1200 X43.21 Y121.275 E6.94944
G0 F6000 X43.443 Y120.942
G1 F1200 X41.71 Y119.209 E7.03096
G0 F6000 X41.863 Y118.796
G1 F1200 X43.675 Y120.609 E7.11621
G0 F6000 X43.908 Y120.276
G1 F1200 X42.046 Y118.414 E7.20379
G0 F6000 X42.229 Y118.031
G1 F1200 X44.141 Y119.942 E7.29371
G0 F6000 X44.345 Y119.581
G1 F1200 X42.433 Y117.669 E7.38364
G0 F6000 X42.647 Y117.318
G1 F1200 X44.532 Y119.203 E7.4723
G0 F6000 X44.698 Y118.803
G1 F1200 X42.861 Y116.966 E7.55871
G0 F6000 X43.098 Y116.637
G1 F1200 X44.841 Y118.38 E7.6407
G0 F6000 X44.97 Y117.943
G1 F1200 X43.341 Y116.314 E7.71732
G0 F6000 X43.589 Y115.997
G1 F1200 X45.066 Y117.474 E7.78679
G0 F6000 X45.149 Y116.991
G1 F1200 X43.863 Y115.706 E7.84726
G0 F6000 X44.139 Y115.415
G1 F1200 X45.194 Y116.471 E7.89691
G0 F6000 X45.194 Y115.904
G1 F1200 X44.446 Y115.157 E7.93207
G0 F6000 X44.767 Y114.912
G1 F1200 X45.121 Y115.266 E7.94872
G0 F6000 X45.461 Y115.188
G1 F2700 E2.94872
G0 F6000 X45.549 Y115.17
G0 X45.899 Y115.392
G0 X46.98 Y115.337
G0 X80.606 Y114.242
G0 X80.686 Y112.373
G0 X80.829 Y114.234
G0 X101.652 Y113.557
G0 X102.163 Y111.952
G0 X103.261 Y113.098
G0 X103.703 Y113.49
G0 X173.114 Y111.233
G0 X171.934 Y110.45
G0 X171.298 Y111.913
;TYPE:WALL-INNER
G1 F2700 E7.94872
G1 F1200 X171.913 Y112.333 E7.97349
G1 X172.36 Y112.418 E7.98862
G1 X172.869 Y112.466 E8.00563
G1 X173.51 Y112.495 E8.02697
G1 X174.274 Y112.509 E8.05238
G1 X175.142 Y112.507 E8.08125
G1 X176.1 Y112.488 E8.11312
G1 X177.122 Y112.454 E8.14713
G1 X182.717 Y112.219 E8.33339
G1 X182.913 Y109.159 E8.43537
G1 X182.956 Y108.428 E8.45973
G1 X182.975 Y107.836 E8.47943
G1 X182.967 Y107.442 E8.49253
G1 X182.834 Y106.815 E8.51385
G1 X181.996 Y106.658 E8.54221
G1 X181.635 Y107.158 E8.56272
G1 X181.459 Y107.523 E8.5762
G1 X181.27 Y107.968 E8.59228
G1 X181.075 Y108.382 E8.6075
G1 X180.891 Y108.656 E8.61848
G1 X180.692 Y108.842 E8.62754
G1 X180.435 Y108.983 E8.63729
G1 X180.054 Y109.099 E8.65053
G1 X179.502 Y109.183 E8.6691
G1 X178.791 Y109.228 E8.6928
G1 X177.878 Y109.242 E8.72317
G1 X176.448 Y109.242 E8.77073
G1 X175.992 Y109.242 E8.7859
G1 X176.301 Y108.908 E8.7941
G1 X179.007 Y105.98 E8.9267
G1 X180.501 Y104.277 E9.00205
G1 X181.659 Y102.746 E9.0659
G1 X182.482 Y101.346 E9.11991
G1 X182.971 Y100.028 E9.16667
G1 X183.109 Y98.758 E9.20916
G1 X182.878 Y97.542 E9.25033
G1 X182.306 Y96.387 E9.29319
G1 X181.427 Y95.264 E9.34063
G1 X180.54 Y94.459 E9.38047
G1 X179.557 Y93.882 E9.41838
G1 X178.505 Y93.54 E9.45517
G1 X177.417 Y93.442 E9.4915
G1 X176.321 Y93.584 E9.52826
G1 X175.251 Y93.964 E9.56603
G1 X174.228 Y94.573 E9.60562
G1 X173.279 Y95.402 E9.64754
G1 X172.574 Y96.236 E9.68386
G1 X172.059 Y97.072 E9.71652
G1 X171.738 Y97.903 E9.74615
G1 X171.626 Y98.72 E9.77357
G1 X171.753 Y99.501 E9.79989
G1 X172.145 Y100.18 E9.82597
G1 X172.781 Y100.68 E9.85288
G1 X173.578 Y100.956 E9.88093
G1 X174.055 Y101.029 E9.89698
G1 X174.496 Y101.027 E9.91165
G1 X174.957 Y100.857 E9.92799
G1 X175.276 Y100.46 E9.94493
G1 X175.386 Y99.997 E9.96075
G1 X175.383 Y99.518 E9.97669
G1 X175.315 Y98.969 E9.99509
G1 X175.206 Y98.359 E10.0157
G1 X175.148 Y97.166 E10.05542
G1 X175.396 Y96.386 E10.08264
G1 X175.828 Y95.91 E10.10402
G1 X176.393 Y95.686 E10.12424
G1 X177.076 Y95.718 E10.14698
G1 X177.813 Y96.052 E10.17389
G1 X178.541 Y96.744 E10.2073
G1 X179.153 Y97.83 E10.24876
G1 X179.397 Y98.657 E10.27744
G1 X179.456 Y99.48 E10.30488
G1 X179.317 Y100.378 E10.33511
G1 X178.953 Y101.39 E10.37088
G1 X178.33 Y102.564 E10.41508
G1 X177.436 Y103.91 E10.46883
G1 X176.221 Y105.499 E10.53535
G1 X174.711 Y107.31 E10.61378
G1 X174.081 Y108.05 E10.6461
G1 X173.493 Y108.756 E10.67666
G1 X172.958 Y109.412 E10.70482
G1 X172.488 Y110.003 E10.72993
G1 X172.071 Y110.552 E10.75286
G1 X171.797 Y110.929 E10.76836
G1 X171.578 Y111.264 E10.78168
G1 X171.298 Y111.913 E10.80518
G0 F6000 X171.796 Y111.769
;TYPE:WALL-OUTER
G1 F1200 X172.07 Y111.956 E10.81622
G1 X172.416 Y112.022 E10.82793
G1 X172.897 Y112.067 E10.844
G1 X173.523 Y112.095 E10.86484
G1 X174.277 Y112.109 E10.88993
G1 X175.138 Y112.107 E10.91856
G1 X176.089 Y112.088 E10.9502
G1 X177.107 Y112.054 E10.98408
G1 X182.341 Y111.834 E11.15831
G1 X182.514 Y109.135 E11.24827
G1 X182.556 Y108.41 E11.27242
G1 X182.575 Y107.833 E11.29162
G1 X182.568 Y107.488 E11.3031
G1 X182.498 Y107.159 E11.31429
G1 X182.172 Y107.098 E11.32532
G1 X181.98 Y107.364 E11.33623
G1 X181.823 Y107.688 E11.3482
G1 X181.632 Y108.138 E11.36446
G1 X181.424 Y108.58 E11.38071
G1 X181.198 Y108.916 E11.39418
G1 X180.928 Y109.168 E11.40646
G1 X180.588 Y109.355 E11.41937
G1 X180.142 Y109.491 E11.43488
G1 X179.553 Y109.58 E11.45469
G1 X178.803 Y109.628 E11.47969
G1 X177.884 Y109.642 E11.51026
G1 X175.078 Y109.642 E11.60358
G1 X178.71 Y105.712 E11.78157
G1 X180.191 Y104.024 E11.85626
G1 X181.326 Y102.523 E11.91885
G1 X182.119 Y101.174 E11.97089
G1 X182.579 Y99.935 E12.01485
G1 X182.705 Y98.774 E12.05369
G1 X182.495 Y97.67 E12.09107
G1 X181.966 Y96.601 E12.13074
G1 X181.133 Y95.537 E12.17568
G1 X180.302 Y94.783 E12.21301
G1 X179.392 Y94.249 E12.2481
G1 X178.424 Y93.934 E12.28196
G1 X177.425 Y93.844 E12.31532
G1 X176.415 Y93.975 E12.34919
G1 X175.422 Y94.328 E12.38424
G1 X174.464 Y94.898 E12.42132
G1 X173.565 Y95.683 E12.46102
G1 X172.899 Y96.471 E12.49533
G1 X172.419 Y97.25 E12.52577
G1 X172.128 Y98.004 E12.55265
G1 X172.03 Y98.715 E12.57652
G1 X172.136 Y99.364 E12.59839
G1 X172.453 Y99.913 E12.61948
G1 X172.975 Y100.324 E12.64157
G1 X173.675 Y100.566 E12.66621
G1 X174.084 Y100.629 E12.67997
G1 X174.424 Y100.627 E12.69128
G1 X174.715 Y100.52 E12.70159
G1 X174.908 Y100.28 E12.71183
G1 X174.986 Y99.952 E12.72305
G1 X174.983 Y99.544 E12.73662
G1 X174.919 Y99.029 E12.75388
G1 X174.807 Y98.402 E12.77506
G1 X174.745 Y97.116 E12.81789
G1 X175.041 Y96.181 E12.85051
G1 X175.595 Y95.572 E12.87789
G1 X176.326 Y95.282 E12.90404
G1 X177.169 Y95.322 E12.93211
G1 X178.039 Y95.716 E12.96388
G1 X178.859 Y96.495 E13.0015
G1 X179.525 Y97.677 E13.04662
G1 X179.793 Y98.584 E13.07808
G1 X179.858 Y99.495 E13.10846
G1 X179.706 Y100.478 E13.14154
G1 X179.32 Y101.55 E13.17944
G1 X178.673 Y102.77 E13.22537
G1 X177.754 Y104.153 E13.28059
G1 X176.539 Y105.742 E13.34712
G1 X175.016 Y107.569 E13.42623
G1 X174.387 Y108.308 E13.45851
G1 X173.802 Y109.011 E13.48893
G1 X173.269 Y109.663 E13.51694
G1 X172.804 Y110.248 E13.54179
G1 X172.392 Y110.791 E13.56447
G1 X172.126 Y111.156 E13.57949
G1 X171.932 Y111.454 E13.59131
G1 X171.796 Y111.769 E13.60273
G1 F2700 E8.60273
G0 F6000 X171.522 Y111.65
G0 X171.056 Y111.984
G0 X170.02 Y113.322
G0 X170.27 Y113.491
G0 X170.741 Y114.19
G0 X170.868 Y114.529
G0 X170.916 Y114.881
G0 X170.868 Y115.233
G0 X170.548 Y115.9
G0 X169.772 Y116.814
G0 X169.264 Y117.214
G0 X168.743 Y117.438
G0 X168.19 Y117.408
G0 X167.266 Y116.562
G0 X167.521 Y114.249
G0 X166.357 Y114.471
G0 X165.338 Y115.188
G0 X164.34 Y116.318
G0 X163.482 Y117.713
G0 X162.85 Y119.228
G0 X162.531 Y120.664
G0 X162.559 Y121.86
G0 X163.037 Y123.264
G0 X165.927 Y123.528
G0 X167.772 Y122.032
G0 X168.303 Y121.759
G0 X168.861 Y121.653
G0 X169.286 Y121.804
G0 X169.427 Y122.245
G0 X169.331 Y122.588
G0 X168.671 Y123.503
G0 X167.934 Y124.234
G0 X166.831 Y125.08
G0 X165.658 Y125.691
G0 X164.457 Y126.053
G0 X163.266 Y126.165
G0 X162.618 Y126.084
G0 X160.979 Y125.763
;TYPE:WALL-INNER
G1 F2700 E13.60273
G1 F1200 X162.08 Y126.179 E13.64187
G1 X163.263 Y126.327 E13.68152
G1 X164.488 Y126.211 E13.72245
G1 X165.718 Y125.84 E13.76518
G1 X166.918 Y125.217 E13.81015
G1 X168.039 Y124.357 E13.85714
G1 X168.448 Y123.969 E13.8759
G1 X168.79 Y123.612 E13.89234
G1 X169.077 Y123.277 E13.90701
G1 X169.305 Y122.963 E13.91992
G1 X169.481 Y122.65 E13.93186
G1 X169.596 Y122.242 E13.94596
G1 X169.418 Y121.675 E13.96572
G1 X168.874 Y121.486 E13.98488
G1 X168.255 Y121.605 E14.00584
G1 X167.956 Y121.739 E14.01674
G1 X167.685 Y121.897 E14.02718
G1 X167.421 Y122.082 E14.0379
G1 X167.165 Y122.292 E14.04891
G1 X166.92 Y122.528 E14.06023
G1 X166.74 Y122.734 E14.06932
G1 X166.325 Y123.124 E14.08827
