;FLAVOR:Marlin
;TIME:11978
;Filament used: 12.9989m
;Layer height: 0.2
;MINX:32.2
;MINY:70.2
;MINZ:0.2
;MAXX:188.665
;MAXY:149.8
;MAXZ:8
;Generated with Cura_SteamEngine 4.12.1
M140 S50
M105
M190 S50
M104 S200
M105
M109 S200
M82 ;absolute extrusion mode
M201 X500.00 Y500.00 Z100.00 E5000.00 ;Setup machine max acceleration
M203 X500.00 Y500.00 Z10.00 E50.00 ;Setup machine max feedrate
M204 P500.00 R1000.00 T500.00 ;Setup Print/Retract/Travel acceleration
M205 X8.00 Y8.00 Z0.40 E5.00 ;Setup Jerk
M220 S100 ;Reset Feedrate
M221 S100 ;Reset Flowrate

G28 ;Home

G92 E0 ;Reset Extruder
G1 Z2.0 F3000 ;Move Z Axis up
G1 X10.1 Y20 Z0.28 F5000.0 ;Move to start position
G1 X10.1 Y200.0 Z0.28 F1500.0 E15 ;Draw the first line
G1 X10.4 Y200.0 Z0.28 F5000.0 ;Move to side a little
G1 X10.4 Y20 Z0.28 F1500.0 E30 ;Draw the second line
G92 E0 ;Reset Extruder
G1 Z2.0 F3000 ;Move Z Axis up

G92 E0
G92 E0
G1 F2700 E-5
;LAYER_COUNT:40
;LAYER:0
M107
;MESH:box.stl
G0 F6000 X187.4 Y149.4 Z0.2
;TYPE:WALL-INNER
G1 F2700 E0
G1 F1200 X32.6 Y149.4 E5.14867
G1 X32.6 Y70.6 E7.76957
G1 X187.4 Y70.6 E12.91824
G1 X187.4 Y149.4 E15.53914
G0 F6000 X187.8 Y149.8
;TYPE:WALL-OUTER
G1 F1200 X32.2 Y149.8 E20.71441
G1 X32.2 Y70.2 E23.36192
G1 X187.8 Y70.2 E28.5372
G1 X187.8 Y149.8 E31.1847
G0 F6000 X187.53 Y149.53
G0 X187.29 Y149.01
G0 X187.01 Y149.01
;TYPE:SKIN
G1 F1200 X32.99 Y149.01 E36.30743
G1 X32.99 Y70.99 E38.90238
G1 X187.01 Y70.99 E44.02511
G1 X187.01 Y149.01 E46.62007
G1 F2700 E41.62007
G0 F6000 X187.29 Y149.01
G0 X187.29 Y71.449
G1 F2700 E46.62007
G0 F6000 X186.849 Y71.449
G1 F1200 X186.549 Y71.149 E46.63418
G0 F6000 X185.983 Y71.149
G1 F1200 X186.849 Y72.015 E46.67491
G0 F6000 X186.849 Y72.58
G1 F1200 X185.418 Y71.149 E46.74222
G0 F6000 X184.852 Y71.149
G1 F1200 X186.849 Y73.146 E46.83615
G0 F6000 X186.849 Y73.712
G1 F1200 X184.286 Y71.149 E46.95671
G0 F6000 X183.721 Y71.149
G1 F1200 X186.849 Y74.278 E47.10386
G0 F6000 X186.849 Y74.843
G1 F1200 X183.155 Y71.149 E47.27762
G0 F6000 X182.589 Y71.149
G1 F1200 X186.849 Y75.409 E47.478
G0 F6000 X186.849 Y75.975
G1 F1200 X182.024 Y71.149 E47.70497
G0 F6000 X181.458 Y71.149
G1 F1200 X186.849 Y76.54 E47.95855
G0 F6000 X186.849 Y77.106
G1 F1200 X180.892 Y71.149 E48.23875
G0 F6000 X180.327 Y71.149
G1 F1200 X186.849 Y77.672 E48.54555
G0 F6000 X186.849 Y78.237
G1 F1200 X179.761 Y71.149 E48.87894
G0 F6000 X179.195 Y71.149
G1 F1200 X186.849 Y78.803 E49.23896
G0 F6000 X186.849 Y79.369
G1 F1200 X178.63 Y71.149 E49.62559
G0 F6000 X178.064 Y71.149
G1 F1200 X186.849 Y79.934 E50.0388
G0 F6000 X186.849 Y80.5
G1 F1200 X177.498 Y71.149 E50.47865
G0 F6000 X176.932 Y71.149
G1 F1200 X186.849 Y81.066 E50.94511
G0 F6000 X186.849 Y81.631
G1 F1200 X176.367 Y71.149 E51.43815
G0 F6000 X175.801 Y71.149
G1 F1200 X186.849 Y82.197 E51.95782
G0 F6000 X186.849 Y82.763
G1 F1200 X175.235 Y71.149 E52.5041
G0 F6000 X174.67 Y71.149
G1 F1200 X186.849 Y83.328 E53.07697
G0 F6000 X186.849 Y83.894
G1 F1200 X174.104 Y71.149 E53.67645
G0 F6000 X173.538 Y71.149
G1 F1200 X186.849 Y84.46 E54.30256
G0 F6000 X186.849 Y85.026
G1 F1200 X172.973 Y71.149 E54.95527
G0 F6000 X172.407 Y71.149
G1 F1200 X186.849 Y85.591 E55.63458
G0 F6000 X186.849 Y86.157
G1 F1200 X171.841 Y71.149 E56.34051
G0 F6000 X171.276 Y71.149
G1 F1200 X186.849 Y86.723 E57.07304
G0 F6000 X186.849 Y87.288
G1 F1200 X170.71 Y71.149 E57.83217
G0 F6000 X170.144 Y71.149
G1 F1200 X186.849 Y87.854 E58.61792
G0 F6000 X186.849 Y88.42
G1 F1200 X169.579 Y71.149 E59.43027
G0 F6000 X169.013 Y71.149
G1 F1200 X186.849 Y88.985 E60.26922
G0 F6000 X186.849 Y89.551
G1 F1200 X168.447 Y71.149 E61.13479
G0 F6000 X167.881 Y71.149
G1 F1200 X186.849 Y90.117 E62.02699
G0 F6000 X186.849 Y90.682
G1 F1200 X167.316 Y71.149 E62.94576
G0 F6000 X166.75 Y71.149
G1 F1200 X186.849 Y91.248 E63.89116
G0 F6000 X186.849 Y91.814
G1 F1200 X166.184 Y71.149 E64.86318
G0 F6000 X165.619 Y71.149
G1 F1200 X186.849 Y92.379 E65.86177
G0 F6000 X186.849 Y92.945
G1 F1200 X165.053 Y71.149 E66.88699
G0 F6000 X164.487 Y71.149
G1 F1200 X186.849 Y93.511 E67.93883
G0 F6000 X186.849 Y94.077
G1 F1200 X163.922 Y71.149 E69.01727
G0 F6000 X163.356 Y71.149
G1 F1200 X186.849 Y94.642 E70.12231
G0 F6000 X186.849 Y95.208
G1 F1200 X162.79 Y71.149 E71.25397
G0 F6000 X162.225 Y71.149
G1 F1200 X186.849 Y95.774 E72.41223
G0 F6000 X186.849 Y96.339
G1 F1200 X161.659 Y71.149 E73.59709
G0 F6000 X161.093 Y71.149
G1 F1200 X186.849 Y96.905 E74.80857
G0 F6000 X186.849 Y97.471
G1 F1200 X160.528 Y71.149 E76.04665
G0 F6000 X159.962 Y71.149
G1 F1200 X186.849 Y98.036 E77.31134
G0 F6000 X186.849 Y98.602
G1 F1200 X159.396 Y71.149 E78.60264
G0 F6000 X158.831 Y71.149
G1 F1200 X186.849 Y99.168 E79.92055
G0 F6000 X186.849 Y99.733
G1 F1200 X158.265 Y71.149 E81.26505
G0 F6000 X157.699 Y71.149
G1 F1200 X186.849 Y100.299 E82.63618
G0 F6000 X186.849 Y100.865
G1 F1200 X157.133 Y71.149 E84.03393
G0 F6000 X156.568 Y71.149
G1 F1200 X186.849 Y101.43 E85.45825
G0 F6000 X186.849 Y101.996
G1 F1200 X156.002 Y71.149 E86.9092
G0 F6000 X155.436 Y71.149
G1 F1200 X186.849 Y102.562 E88.38677
G0 F6000 X186.849 Y103.127
G1 F1200 X154.871 Y71.149 E89.89092
G0 F6000 X154.305 Y71.149
G1 F1200 X186.849 Y103.693 E91.42169
G0 F6000 X186.849 Y104.259
G1 F1200 X153.739 Y71.149 E92.97908
G0 F6000 X153.174 Y71.149
G1 F1200 X186.849 Y104.825 E94.56307
G0 F6000 X186.849 Y105.39
G1 F1200 X152.608 Y71.149 E96.17366
G0 F6000 X152.042 Y71.149
G1 F1200 X186.849 Y105.956 E97.81088
G0 F6000 X186.849 Y106.522
G1 F1200 X151.477 Y71.149 E99.47469
G0 F6000 X150.911 Y71.149
G1 F1200 X186.849 Y107.087 E101.16511
G0 F6000 X186.849 Y107.653
G1 F1200 X150.345 Y71.149 E102.88214
G0 F6000 X149.78 Y71.149
G1 F1200 X186.849 Y108.219 E104.62578
G0 F6000 X186.849 Y108.784
G1 F1200 X149.214 Y71.149 E106.39601
G0 F6000 X148.648 Y71.149
G1 F1200 X186.849 Y109.35 E108.19287
G0 F6000 X186.849 Y109.916
G1 F1200 X148.083 Y71.149 E110.01633
G0 F6000 X147.517 Y71.149
G1 F1200 X186.849 Y110.481 E111.86638
G0 F6000 X186.849 Y111.047
G1 F1200 X146.951 Y71.149 E113.74306
G0 F6000 X146.385 Y71.149
G1 F1200 X186.849 Y111.613 E115.64637
G0 F6000 X186.849 Y112.178
G1 F1200 X145.82 Y71.149 E117.57625
G0 F6000 X145.254 Y71.149
G1 F1200 X186.849 Y112.744 E119.53275
G0 F6000 X186.849 Y113.31
G1 F1200 X144.688 Y71.149 E121.51587
G0 F6000 X144.123 Y71.149
G1 F1200 X186.849 Y113.876 E123.52559
G0 F6000 X186.849 Y114.441
G1 F1200 X143.557 Y71.149 E125.56192
G0 F6000 X142.991 Y71.149
G1 F1200 X186.849 Y115.007 E127.62486
G0 F6000 X186.849 Y115.573
G1 F1200 X142.426 Y71.149 E129.71441
G0 F6000 X141.86 Y71.149
G1 F1200 X186.849 Y116.138 E131.83055
G0 F6000 X186.849 Y116.704
G1 F1200 X141.294 Y71.149 E133.97332
G0 F6000 X140.729 Y71.149
G1 F1200 X186.849 Y117.27 E136.14269
G0 F6000 X186.849 Y117.835
G1 F1200 X140.163 Y71.149 E138.33865
G0 F6000 X139.597 Y71.149
G1 F1200 X186.849 Y118.401 E140.56124
G0 F6000 X186.849 Y118.967
G1 F1200 X139.032 Y71.149 E142.81043
G0 F6000 X138.466 Y71.149
G1 F1200 X186.849 Y119.532 E145.08622
G0 F6000 X186.849 Y120.098
G1 F1200 X137.9 Y71.149 E147.38863
G0 F6000 X137.334 Y71.149
G1 F1200 X186.849 Y120.664 E149.71766
G0 F6000 X186.849 Y121.229
G1 F1200 X136.769 Y71.149 E152.07327
G0 F6000 X136.203 Y71.149
G1 F1200 X186.849 Y121.795 E154.45551
G0 F6000 X186.849 Y122.361
G1 F1200 X135.637 Y71.149 E156.86436
G0 F6000 X135.072 Y71.149
G1 F1200 X186.849 Y122.926 E159.29979
G0 F6000 X186.849 Y123.492
G1 F1200 X134.506 Y71.149 E161.76185
G0 F6000 X133.94 Y71.149
G1 F1200 X186.849 Y124.058 E164.25052
G0 F6000 X186.849 Y124.624
G1 F1200 X133.375 Y71.149 E166.7658
G0 F6000 X132.809 Y71.149
G1 F1200 X186.849 Y125.189 E169.30768
G0 F6000 X186.849 Y125.755
G1 F1200 X132.243 Y71.149 E171.87618
G0 F6000 X131.678 Y71.149
G1 F1200 X186.849 Y126.321 E174.47127
G0 F6000 X186.849 Y126.886
G1 F1200 X131.112 Y71.149 E177.09297
G0 F6000 X130.546 Y71.149
G1 F1200 X186.849 Y127.452 E179.74129
G0 F6000 X186.849 Y128.018
G1 F1200 X129.981 Y71.149 E182.41621
G0 F6000 X129.415 Y71.149
G1 F1200 X186.849 Y128.583 E185.11773
G0 F6000 X186.849 Y129.149
G1 F1200 X128.849 Y71.149 E187.84587
G0 F6000 X128.284 Y71.149
G1 F1200 X186.849 Y129.715 E190.60062
G0 F6000 X186.849 Y130.28
G1 F1200 X127.718 Y71.149 E193.38196
G0 F6000 X127.152 Y71.149
G1 F1200 X186.849 Y130.846 E196.18992
G0 F6000 X186.849 Y131.412
G1 F1200 X126.586 Y71.149 E199.02451
G0 F6000 X126.021 Y71.149
G1 F1200 X186.849 Y131.977 E201.88567
G0 F6000 X186.849 Y132.543
G1 F1200 X125.455 Y71.149 E204.77345
G0 F6000 X124.889 Y71.149
G1 F1200 X186.849 Y133.109 E207.68786
G0 F6000 X186.849 Y133.675
G1 F1200 X124.324 Y71.149 E210.62887
G0 F6000 X123.758 Y71.149
G1 F1200 X186.849 Y134.24 E213.59648
G0 F6000 X186.849 Y134.806
G1 F1200 X123.192 Y71.149 E216.59071
G0 F6000 X122.627 Y71.149
G1 F1200 X186.849 Y135.372 E219.61154
G0 F6000 X186.849 Y135.937
G1 F1200 X122.061 Y71.149 E222.65897
G0 F6000 X121.495 Y71.149
G1 F1200 X186.849 Y136.503 E225.73302
G0 F6000 X186.849 Y137.069
G1 F1200 X120.93 Y71.149 E228.83367
G0 F6000 X120.364 Y71.149
G1 F1200 X186.849 Y137.634 E231.96092
G0 F6000 X186.849 Y138.2
G1 F1200 X119.798 Y71.149 E235.11479
G0 F6000 X119.233 Y71.149
G1 F1200 X186.849 Y138.766 E238.29527
G0 F6000 X186.849 Y139.331
G1 F1200 X118.667 Y71.149 E241.50234
G0 F6000 X118.101 Y71.149
G1 F1200 X186.849 Y139.897 E244.73603
G0 F6000 X186.849 Y140.463
G1 F1200 X117.535 Y71.149 E247.99635
G0 F6000 X116.97 Y71.149
G1 F1200 X186.849 Y141.028 E251.28325
G0 F6000 X186.849 Y141.594
G1 F1200 X116.404 Y71.149 E254.59676
G0 F6000 X115.838 Y71.149
G1 F1200 X186.849 Y142.16 E257.9369
G0 F6000 X186.849 Y142.725
G1 F1200 X115.273 Y71.149 E261.30362
G0 F6000 X114.707 Y71.149
G1 F1200 X186.849 Y143.291 E264.69696
G0 F6000 X186.849 Y143.857
G1 F1200 X114.141 Y71.149 E268.11692
G0 F6000 X113.576 Y71.149
G1 F1200 X186.849 Y144.423 E271.56348
G0 F6000 X186.849 Y144.988
G1 F1200 X113.01 Y71.149 E275.03664
G0 F6000 X112.444 Y71.149
G1 F1200 X186.849 Y145.554 E278.53642
G0 F6000 X186.849 Y146.12
G1 F1200 X111.879 Y71.149 E282.0628
G0 F6000 X111.313 Y71.149
G1 F1200 X186.849 Y146.685 E285.61579
G0 F6000 X186.849 Y147.251
G1 F1200 X110.747 Y71.149 E289.19539
G0 F6000 X110.182 Y71.149
G1 F1200 X186.849 Y147.817 E292.8016
G0 F6000 X186.849 Y148.382
G1 F1200 X109.616 Y71.149 E296.4344
G0 F6000 X109.05 Y71.149
G1 F1200 X186.75 Y148.849 E300.08917
G0 F6000 X186.184 Y148.849
G1 F1200 X108.485 Y71.149 E303.74391
G0 F6000 X107.919 Y71.149
G1 F1200 X185.619 Y148.849 E307.39868
G0 F6000 X185.053 Y148.849
G1 F1200 X107.353 Y71.149 E311.05345
G0 F6000 X106.787 Y71.149
G1 F1200 X184.487 Y148.849 E314.70822
G0 F6000 X183.922 Y148.849
G1 F1200 X106.222 Y71.149 E318.36299
G0 F6000 X105.656 Y71.149
G1 F1200 X183.356 Y148.849 E322.01776
G0 F6000 X182.79 Y148.849
G1 F1200 X105.09 Y71.149 E325.67253
G0 F6000 X104.525 Y71.149
G1 F1200 X182.224 Y148.849 E329.32728
G0 F6000 X181.659 Y148.849
G1 F1200 X103.959 Y71.149 E332.98205
G0 F6000 X103.393 Y71.149
G1 F1200 X181.093 Y148.849 E336.63682
G0 F6000 X180.527 Y148.849
G1 F1200 X102.828 Y71.149 E340.29157
G0 F6000 X102.262 Y71.149
G1 F1200 X179.962 Y148.849 E343.94634
G0 F6000 X179.396 Y148.849
G1 F1200 X101.696 Y71.149 E347.60111
G0 F6000 X101.131 Y71.149
G1 F1200 X178.83 Y148.849 E351.25585
G0 F6000 X178.265 Y148.849
G1 F1200 X100.565 Y71.149 E354.91062
G0 F6000 X99.999 Y71.149
G1 F1200 X177.699 Y148.849 E358.56539
G0 F6000 X177.133 Y148.849
G1 F1200 X99.434 Y71.149 E362.22014
G0 F6000 X98.868 Y71.149
G1 F1200 X176.568 Y148.849 E365.87491
G0 F6000 X176.002 Y148.849
G1 F1200 X98.302 Y71.149 E369.52968
G0 F6000 X97.737 Y71.149
G1 F1200 X175.436 Y148.849 E373.18442
G0 F6000 X174.871 Y148.849
G1 F1200 X97.171 Y71.149 E376.83919
G0 F6000 X96.605 Y71.149
G1 F1200 X174.305 Y148.849 E380.49396
G0 F6000 X173.739 Y148.849
G1 F1200 X96.039 Y71.149 E384.14873
G0 F6000 X95.474 Y71.149
G1 F1200 X173.173 Y148.849 E387.80348
G0 F6000 X172.608 Y148.849
G1 F1200 X94.908 Y71.149 E391.45825
G0 F6000 X94.342 Y71.149
G1 F1200 X172.042 Y148.849 E395.11302
G0 F6000 X171.476 Y148.849
G1 F1200 X93.777 Y71.149 E398.76776
G0 F6000 X93.211 Y71.149
G1 F1200 X170.911 Y148.849 E402.42253
G0 F6000 X170.345 Y148.849
G1 F1200 X92.645 Y71.149 E406.0773
G0 F6000 X92.08 Y71.149
G1 F1200 X169.779 Y148.849 E409.73205
G0 F6000 X169.214 Y148.849
G1 F1200 X91.514 Y71.149 E413.38682
G0 F6000 X90.948 Y71.149
G1 F1200 X168.648 Y148.849 E417.04159
G0 F6000 X168.082 Y148.849
G1 F1200 X90.383 Y71.149 E420.69634
G0 F6000 X89.817 Y71.149
G1 F1200 X167.517 Y148.849 E424.35111
G0 F6000 X166.951 Y148.849
G1 F1200 X89.251 Y71.149 E428.00588
G0 F6000 X88.686 Y71.149
G1 F1200 X166.385 Y148.849 E431.66062
G0 F6000 X165.82 Y148.849
G1 F1200 X88.12 Y71.149 E435.31539
G0 F6000 X87.554 Y71.149
G1 F1200 X165.254 Y148.849 E438.97016
G0 F6000 X164.688 Y148.849
G1 F1200 X86.988 Y71.149 E442.62493
G0 F6000 X86.423 Y71.149
G1 F1200 X164.123 Y148.849 E446.2797
G0 F6000 X163.557 Y148.849
G1 F1200 X85.857 Y71.149 E449.93447
G0 F6000 X85.291 Y71.149
G1 F1200 X162.991 Y148.849 E453.58924
G0 F6000 X162.425 Y148.849
G1 F1200 X84.726 Y71.149 E457.24399
G0 F6000 X84.16 Y71.149
G1 F1200 X161.86 Y148.849 E460.89876
G0 F6000 X161.294 Y148.849
G1 F1200 X83.594 Y71.149 E464.55353
G0 F6000 X83.029 Y71.149
G1 F1200 X160.728 Y148.849 E468.20827
G0 F6000 X160.163 Y148.849
G1 F1200 X82.463 Y71.149 E471.86304
G0 F6000 X81.897 Y71.149
G1 F1200 X159.597 Y148.849 E475.51781
G0 F6000 X159.031 Y148.849
G1 F1200 X81.332 Y71.149 E479.17256
G0 F6000 X80.766 Y71.149
G1 F1200 X158.466 Y148.849 E482.82733
G0 F6000 X157.9 Y148.849
G1 F1200 X80.2 Y71.149 E486.4821
G0 F6000 X79.635 Y71.149
G1 F1200 X157.334 Y148.849 E490.13684
G0 F6000 X156.769 Y148.849
G1 F1200 X79.069 Y71.149 E493.79161
G0 F6000 X78.503 Y71.149
G1 F1200 X156.203 Y148.849 E497.44638
G0 F6000 X155.637 Y148.849
G1 F1200 X77.938 Y71.149 E501.10113
G0 F6000 X77.372 Y71.149
G1 F1200 X155.072 Y148.849 E504.7559
G0 F6000 X154.506 Y148.849
G1 F1200 X76.806 Y71.149 E508.41067
G0 F6000 X76.24 Y71.149
G1 F1200 X153.94 Y148.849 E512.06544
G0 F6000 X153.374 Y148.849
G1 F1200 X75.675 Y71.149 E515.72019
G0 F6000 X75.109 Y71.149
G1 F1200 X152.809 Y148.849 E519.37496
G0 F6000 X152.243 Y148.849
G1 F1200 X74.543 Y71.149 E523.02973
G0 F6000 X73.978 Y71.149
G1 F1200 X151.677 Y148.849 E526.68447
G0 F6000 X151.112 Y148.849
G1 F1200 X73.412 Y71.149 E530.33924
G0 F6000 X72.846 Y71.149
G1 F1200 X150.546 Y148.849 E533.99401
G0 F6000 X149.98 Y148.849
G1 F1200 X72.281 Y71.149 E537.64876
G0 F6000 X71.715 Y71.149
G1 F1200 X149.415 Y148.849 E541.30353
G0 F6000 X148.849 Y148.849
G1 F1200 X71.149 Y71.149 E544.9583
G0 F6000 X70.584 Y71.149
G1 F1200 X148.283 Y148.849 E548.61304
G0 F6000 X147.718 Y148.849
G1 F1200 X70.018 Y71.149 E552.26781
G0 F6000 X69.452 Y71.149
G1 F1200 X147.152 Y148.849 E555.92258
G0 F6000 X146.586 Y148.849
G1 F1200 X68.887 Y71.149 E559.57733
G0 F6000 X68.321 Y71.149
G1 F1200 X146.021 Y148.849 E563.2321
G0 F6000 X145.455 Y148.849
G1 F1200 X67.755 Y71.149 E566.88687
G0 F6000 X67.189 Y71.149
G1 F1200 X144.889 Y148.849 E570.54164
G0 F6000 X144.324 Y148.849
G1 F1200 X66.624 Y71.149 E574.19641
G0 F6000 X66.058 Y71.149
G1 F1200 X143.758 Y148.849 E577.85118
G0 F6000 X143.192 Y148.849
G1 F1200 X65.492 Y71.149 E581.50595
G0 F6000 X64.927 Y71.149
G1 F1200 X142.626 Y148.849 E585.16069
G0 F6000 X142.061 Y148.849
G1 F1200 X64.361 Y71.149 E588.81546
G0 F6000 X63.795 Y71.149
G1 F1200 X141.495 Y148.849 E592.47023
G0 F6000 X140.929 Y148.849
G1 F1200 X63.23 Y71.149 E596.12498
G0 F6000 X62.664 Y71.149
G1 F1200 X140.364 Y148.849 E599.77975
G0 F6000 X139.798 Y148.849
G1 F1200 X62.098 Y71.149 E603.43452
G0 F6000 X61.533 Y71.149
G1 F1200 X139.232 Y148.849 E607.08927
G0 F6000 X138.667 Y148.849
G1 F1200 X60.967 Y71.149 E610.74404
G0 F6000 X60.401 Y71.149
G1 F1200 X138.101 Y148.849 E614.39881
G0 F6000 X137.535 Y148.849
G1 F1200 X59.836 Y71.149 E618.05355
G0 F6000 X59.27 Y71.149
G1 F1200 X136.97 Y148.849 E621.70832
G0 F6000 X136.404 Y148.849
G1 F1200 X58.704 Y71.149 E625.36309
G0 F6000 X58.139 Y71.149
G1 F1200 X135.838 Y148.849 E629.01784
G0 F6000 X135.273 Y148.849
G1 F1200 X57.573 Y71.149 E632.67261
G0 F6000 X57.007 Y71.149
